( QR Code Engraving script for bitcoin )
( Code formatted for compatibility with Mach3 )
( Generated by qr_generator.py https://github.com/iStivi/QRCode_engraver )
( Engraving coded string: 133Gf5WZEJpNN77upypUGGHZU8pW3oui1c )
G71 G90
( Cutting out QR code )
T301 M6 (0.1mm engraving tool )
F500
G1 Z3
G0 X3.2500 Y26.3500 
G1 Z-0.2500 
G1 X3.9500 Y26.3500 
G1 X3.9500 Y25.6500 
G1 X3.2500 Y25.6500 
G1 X3.2500 Y26.3500 
G1 Z-0.5000 
G1 X3.9500 Y26.3500 
G1 X3.9500 Y25.6500 
G1 X3.2500 Y25.6500 
G1 X3.2500 Y26.3500 
G1 Z3.0000 
G0 X3.2500 Y26.3500 
G1 Z0.2500 
G0 X3.2500 Y26.3000 
G1 Z-0.2500 
G1 X3.9500 Y26.3000 
G1 Z0.2500 
G0 X3.2500 Y26.2000 
G1 Z-0.2500 
G1 X3.9500 Y26.2000 
G1 Z0.2500 
G0 X3.2500 Y26.1000 
G1 Z-0.2500 
G1 X3.9500 Y26.1000 
G1 Z0.2500 
G0 X3.2500 Y26.0000 
G1 Z-0.2500 
G1 X3.9500 Y26.0000 
G1 Z0.2500 
G0 X3.2500 Y25.9000 
G1 Z-0.2500 
G1 X3.9500 Y25.9000 
G1 Z0.2500 
G0 X3.2500 Y25.8000 
G1 Z-0.2500 
G1 X3.9500 Y25.8000 
G1 Z0.2500 
G0 X3.2500 Y25.7000 
G1 Z-0.2500 
G1 X3.9500 Y25.7000 
G1 Z0.0000 
G0 X3.2500 Y26.3000 
G1 Z-0.5000 
G1 X3.9500 Y26.3000 
G1 Z0.0000 
G0 X3.2500 Y26.2000 
G1 Z-0.5000 
G1 X3.9500 Y26.2000 
G1 Z0.0000 
G0 X3.2500 Y26.1000 
G1 Z-0.5000 
G1 X3.9500 Y26.1000 
G1 Z0.0000 
G0 X3.2500 Y26.0000 
G1 Z-0.5000 
G1 X3.9500 Y26.0000 
G1 Z0.0000 
G0 X3.2500 Y25.9000 
G1 Z-0.5000 
G1 X3.9500 Y25.9000 
G1 Z0.0000 
G0 X3.2500 Y25.8000 
G1 Z-0.5000 
G1 X3.9500 Y25.8000 
G1 Z0.0000 
G0 X3.2500 Y25.7000 
G1 Z-0.5000 
G1 X3.9500 Y25.7000 
G1 Z3.0000 
G0 X4.0500 Y26.3500 
G1 Z-0.2500 
G1 X4.7500 Y26.3500 
G1 X4.7500 Y25.6500 
G1 X4.0500 Y25.6500 
G1 X4.0500 Y26.3500 
G1 Z-0.5000 
G1 X4.7500 Y26.3500 
G1 X4.7500 Y25.6500 
G1 X4.0500 Y25.6500 
G1 X4.0500 Y26.3500 
G1 Z3.0000 
G0 X4.0500 Y26.3500 
G1 Z0.2500 
G0 X4.1000 Y26.3500 
G1 Z-0.2500 
G1 X4.1000 Y25.6500 
G1 Z0.2500 
G0 X4.1000 Y26.3500 
G1 Z-0.2500 
G1 X4.1000 Y25.6500 
G1 Z0.2500 
G0 X4.1000 Y26.3500 
G1 Z-0.2500 
G1 X4.1000 Y25.6500 
G1 Z0.2500 
G0 X4.1000 Y26.3500 
G1 Z-0.2500 
G1 X4.1000 Y25.6500 
G1 Z0.2500 
G0 X4.1000 Y26.3500 
G1 Z-0.2500 
G1 X4.1000 Y25.6500 
G1 Z0.2500 
G0 X4.1000 Y26.3500 
G1 Z-0.2500 
G1 X4.1000 Y25.6500 
G1 Z0.2500 
G0 X4.1000 Y26.3500 
G1 Z-0.2500 
G1 X4.1000 Y25.6500 
G1 Z0.0000 
G0 X4.1000 Y26.3500 
G1 Z-0.5000 
G1 X4.1000 Y25.6500 
G1 Z0.0000 
G0 X4.1000 Y26.3500 
G1 Z-0.5000 
G1 X4.1000 Y25.6500 
G1 Z0.0000 
G0 X4.1000 Y26.3500 
G1 Z-0.5000 
G1 X4.1000 Y25.6500 
G1 Z0.0000 
G0 X4.1000 Y26.3500 
G1 Z-0.5000 
G1 X4.1000 Y25.6500 
G1 Z0.0000 
G0 X4.1000 Y26.3500 
G1 Z-0.5000 
G1 X4.1000 Y25.6500 
G1 Z0.0000 
G0 X4.1000 Y26.3500 
G1 Z-0.5000 
G1 X4.1000 Y25.6500 
G1 Z0.0000 
G0 X4.1000 Y26.3500 
G1 Z-0.5000 
G1 X4.1000 Y25.6500 
G1 Z3.0000 
G0 X4.8500 Y26.3500 
G1 Z-0.2500 
G1 X5.5500 Y26.3500 
G1 X5.5500 Y25.6500 
G1 X4.8500 Y25.6500 
G1 X4.8500 Y26.3500 
G1 Z-0.5000 
G1 X5.5500 Y26.3500 
G1 X5.5500 Y25.6500 
G1 X4.8500 Y25.6500 
G1 X4.8500 Y26.3500 
G1 Z3.0000 
G0 X4.8500 Y26.3500 
G1 Z0.2500 
G0 X4.8500 Y26.3000 
G1 Z-0.2500 
G1 X5.5500 Y26.3000 
G1 Z0.2500 
G0 X4.8500 Y26.2000 
G1 Z-0.2500 
G1 X5.5500 Y26.2000 
G1 Z0.2500 
G0 X4.8500 Y26.1000 
G1 Z-0.2500 
G1 X5.5500 Y26.1000 
G1 Z0.2500 
G0 X4.8500 Y26.0000 
G1 Z-0.2500 
G1 X5.5500 Y26.0000 
G1 Z0.2500 
G0 X4.8500 Y25.9000 
G1 Z-0.2500 
G1 X5.5500 Y25.9000 
G1 Z0.2500 
G0 X4.8500 Y25.8000 
G1 Z-0.2500 
G1 X5.5500 Y25.8000 
G1 Z0.2500 
G0 X4.8500 Y25.7000 
G1 Z-0.2500 
G1 X5.5500 Y25.7000 
G1 Z0.0000 
G0 X4.8500 Y26.3000 
G1 Z-0.5000 
G1 X5.5500 Y26.3000 
G1 Z0.0000 
G0 X4.8500 Y26.2000 
G1 Z-0.5000 
G1 X5.5500 Y26.2000 
G1 Z0.0000 
G0 X4.8500 Y26.1000 
G1 Z-0.5000 
G1 X5.5500 Y26.1000 
G1 Z0.0000 
G0 X4.8500 Y26.0000 
G1 Z-0.5000 
G1 X5.5500 Y26.0000 
G1 Z0.0000 
G0 X4.8500 Y25.9000 
G1 Z-0.5000 
G1 X5.5500 Y25.9000 
G1 Z0.0000 
G0 X4.8500 Y25.8000 
G1 Z-0.5000 
G1 X5.5500 Y25.8000 
G1 Z0.0000 
G0 X4.8500 Y25.7000 
G1 Z-0.5000 
G1 X5.5500 Y25.7000 
G1 Z3.0000 
G0 X5.6500 Y26.3500 
G1 Z-0.2500 
G1 X6.3500 Y26.3500 
G1 X6.3500 Y25.6500 
G1 X5.6500 Y25.6500 
G1 X5.6500 Y26.3500 
G1 Z-0.5000 
G1 X6.3500 Y26.3500 
G1 X6.3500 Y25.6500 
G1 X5.6500 Y25.6500 
G1 X5.6500 Y26.3500 
G1 Z3.0000 
G0 X5.6500 Y26.3500 
G1 Z0.2500 
G0 X5.7000 Y26.3500 
G1 Z-0.2500 
G1 X5.7000 Y25.6500 
G1 Z0.2500 
G0 X5.7000 Y26.3500 
G1 Z-0.2500 
G1 X5.7000 Y25.6500 
G1 Z0.2500 
G0 X5.7000 Y26.3500 
G1 Z-0.2500 
G1 X5.7000 Y25.6500 
G1 Z0.2500 
G0 X5.7000 Y26.3500 
G1 Z-0.2500 
G1 X5.7000 Y25.6500 
G1 Z0.2500 
G0 X5.7000 Y26.3500 
G1 Z-0.2500 
G1 X5.7000 Y25.6500 
G1 Z0.2500 
G0 X5.7000 Y26.3500 
G1 Z-0.2500 
G1 X5.7000 Y25.6500 
G1 Z0.2500 
G0 X5.7000 Y26.3500 
G1 Z-0.2500 
G1 X5.7000 Y25.6500 
G1 Z0.0000 
G0 X5.7000 Y26.3500 
G1 Z-0.5000 
G1 X5.7000 Y25.6500 
G1 Z0.0000 
G0 X5.7000 Y26.3500 
G1 Z-0.5000 
G1 X5.7000 Y25.6500 
G1 Z0.0000 
G0 X5.7000 Y26.3500 
G1 Z-0.5000 
G1 X5.7000 Y25.6500 
G1 Z0.0000 
G0 X5.7000 Y26.3500 
G1 Z-0.5000 
G1 X5.7000 Y25.6500 
G1 Z0.0000 
G0 X5.7000 Y26.3500 
G1 Z-0.5000 
G1 X5.7000 Y25.6500 
G1 Z0.0000 
G0 X5.7000 Y26.3500 
G1 Z-0.5000 
G1 X5.7000 Y25.6500 
G1 Z0.0000 
G0 X5.7000 Y26.3500 
G1 Z-0.5000 
G1 X5.7000 Y25.6500 
G1 Z3.0000 
G0 X6.4500 Y26.3500 
G1 Z-0.2500 
G1 X7.1500 Y26.3500 
G1 X7.1500 Y25.6500 
G1 X6.4500 Y25.6500 
G1 X6.4500 Y26.3500 
G1 Z-0.5000 
G1 X7.1500 Y26.3500 
G1 X7.1500 Y25.6500 
G1 X6.4500 Y25.6500 
G1 X6.4500 Y26.3500 
G1 Z3.0000 
G0 X6.4500 Y26.3500 
G1 Z0.2500 
G0 X6.4500 Y26.3000 
G1 Z-0.2500 
G1 X7.1500 Y26.3000 
G1 Z0.2500 
G0 X6.4500 Y26.2000 
G1 Z-0.2500 
G1 X7.1500 Y26.2000 
G1 Z0.2500 
G0 X6.4500 Y26.1000 
G1 Z-0.2500 
G1 X7.1500 Y26.1000 
G1 Z0.2500 
G0 X6.4500 Y26.0000 
G1 Z-0.2500 
G1 X7.1500 Y26.0000 
G1 Z0.2500 
G0 X6.4500 Y25.9000 
G1 Z-0.2500 
G1 X7.1500 Y25.9000 
G1 Z0.2500 
G0 X6.4500 Y25.8000 
G1 Z-0.2500 
G1 X7.1500 Y25.8000 
G1 Z0.2500 
G0 X6.4500 Y25.7000 
G1 Z-0.2500 
G1 X7.1500 Y25.7000 
G1 Z0.0000 
G0 X6.4500 Y26.3000 
G1 Z-0.5000 
G1 X7.1500 Y26.3000 
G1 Z0.0000 
G0 X6.4500 Y26.2000 
G1 Z-0.5000 
G1 X7.1500 Y26.2000 
G1 Z0.0000 
G0 X6.4500 Y26.1000 
G1 Z-0.5000 
G1 X7.1500 Y26.1000 
G1 Z0.0000 
G0 X6.4500 Y26.0000 
G1 Z-0.5000 
G1 X7.1500 Y26.0000 
G1 Z0.0000 
G0 X6.4500 Y25.9000 
G1 Z-0.5000 
G1 X7.1500 Y25.9000 
G1 Z0.0000 
G0 X6.4500 Y25.8000 
G1 Z-0.5000 
G1 X7.1500 Y25.8000 
G1 Z0.0000 
G0 X6.4500 Y25.7000 
G1 Z-0.5000 
G1 X7.1500 Y25.7000 
G1 Z3.0000 
G0 X7.2500 Y26.3500 
G1 Z-0.2500 
G1 X7.9500 Y26.3500 
G1 X7.9500 Y25.6500 
G1 X7.2500 Y25.6500 
G1 X7.2500 Y26.3500 
G1 Z-0.5000 
G1 X7.9500 Y26.3500 
G1 X7.9500 Y25.6500 
G1 X7.2500 Y25.6500 
G1 X7.2500 Y26.3500 
G1 Z3.0000 
G0 X7.2500 Y26.3500 
G1 Z0.2500 
G0 X7.3000 Y26.3500 
G1 Z-0.2500 
G1 X7.3000 Y25.6500 
G1 Z0.2500 
G0 X7.3000 Y26.3500 
G1 Z-0.2500 
G1 X7.3000 Y25.6500 
G1 Z0.2500 
G0 X7.3000 Y26.3500 
G1 Z-0.2500 
G1 X7.3000 Y25.6500 
G1 Z0.2500 
G0 X7.3000 Y26.3500 
G1 Z-0.2500 
G1 X7.3000 Y25.6500 
G1 Z0.2500 
G0 X7.3000 Y26.3500 
G1 Z-0.2500 
G1 X7.3000 Y25.6500 
G1 Z0.2500 
G0 X7.3000 Y26.3500 
G1 Z-0.2500 
G1 X7.3000 Y25.6500 
G1 Z0.2500 
G0 X7.3000 Y26.3500 
G1 Z-0.2500 
G1 X7.3000 Y25.6500 
G1 Z0.0000 
G0 X7.3000 Y26.3500 
G1 Z-0.5000 
G1 X7.3000 Y25.6500 
G1 Z0.0000 
G0 X7.3000 Y26.3500 
G1 Z-0.5000 
G1 X7.3000 Y25.6500 
G1 Z0.0000 
G0 X7.3000 Y26.3500 
G1 Z-0.5000 
G1 X7.3000 Y25.6500 
G1 Z0.0000 
G0 X7.3000 Y26.3500 
G1 Z-0.5000 
G1 X7.3000 Y25.6500 
G1 Z0.0000 
G0 X7.3000 Y26.3500 
G1 Z-0.5000 
G1 X7.3000 Y25.6500 
G1 Z0.0000 
G0 X7.3000 Y26.3500 
G1 Z-0.5000 
G1 X7.3000 Y25.6500 
G1 Z0.0000 
G0 X7.3000 Y26.3500 
G1 Z-0.5000 
G1 X7.3000 Y25.6500 
G1 Z3.0000 
G0 X8.0500 Y26.3500 
G1 Z-0.2500 
G1 X8.7500 Y26.3500 
G1 X8.7500 Y25.6500 
G1 X8.0500 Y25.6500 
G1 X8.0500 Y26.3500 
G1 Z-0.5000 
G1 X8.7500 Y26.3500 
G1 X8.7500 Y25.6500 
G1 X8.0500 Y25.6500 
G1 X8.0500 Y26.3500 
G1 Z3.0000 
G0 X8.0500 Y26.3500 
G1 Z0.2500 
G0 X8.0500 Y26.3000 
G1 Z-0.2500 
G1 X8.7500 Y26.3000 
G1 Z0.2500 
G0 X8.0500 Y26.2000 
G1 Z-0.2500 
G1 X8.7500 Y26.2000 
G1 Z0.2500 
G0 X8.0500 Y26.1000 
G1 Z-0.2500 
G1 X8.7500 Y26.1000 
G1 Z0.2500 
G0 X8.0500 Y26.0000 
G1 Z-0.2500 
G1 X8.7500 Y26.0000 
G1 Z0.2500 
G0 X8.0500 Y25.9000 
G1 Z-0.2500 
G1 X8.7500 Y25.9000 
G1 Z0.2500 
G0 X8.0500 Y25.8000 
G1 Z-0.2500 
G1 X8.7500 Y25.8000 
G1 Z0.2500 
G0 X8.0500 Y25.7000 
G1 Z-0.2500 
G1 X8.7500 Y25.7000 
G1 Z0.0000 
G0 X8.0500 Y26.3000 
G1 Z-0.5000 
G1 X8.7500 Y26.3000 
G1 Z0.0000 
G0 X8.0500 Y26.2000 
G1 Z-0.5000 
G1 X8.7500 Y26.2000 
G1 Z0.0000 
G0 X8.0500 Y26.1000 
G1 Z-0.5000 
G1 X8.7500 Y26.1000 
G1 Z0.0000 
G0 X8.0500 Y26.0000 
G1 Z-0.5000 
G1 X8.7500 Y26.0000 
G1 Z0.0000 
G0 X8.0500 Y25.9000 
G1 Z-0.5000 
G1 X8.7500 Y25.9000 
G1 Z0.0000 
G0 X8.0500 Y25.8000 
G1 Z-0.5000 
G1 X8.7500 Y25.8000 
G1 Z0.0000 
G0 X8.0500 Y25.7000 
G1 Z-0.5000 
G1 X8.7500 Y25.7000 
G1 Z3.0000 
G0 X9.6500 Y26.3500 
G1 Z-0.2500 
G1 X10.3500 Y26.3500 
G1 X10.3500 Y25.6500 
G1 X9.6500 Y25.6500 
G1 X9.6500 Y26.3500 
G1 Z-0.5000 
G1 X10.3500 Y26.3500 
G1 X10.3500 Y25.6500 
G1 X9.6500 Y25.6500 
G1 X9.6500 Y26.3500 
G1 Z3.0000 
G0 X9.6500 Y26.3500 
G1 Z0.2500 
G0 X9.6500 Y26.3000 
G1 Z-0.2500 
G1 X10.3500 Y26.3000 
G1 Z0.2500 
G0 X9.6500 Y26.2000 
G1 Z-0.2500 
G1 X10.3500 Y26.2000 
G1 Z0.2500 
G0 X9.6500 Y26.1000 
G1 Z-0.2500 
G1 X10.3500 Y26.1000 
G1 Z0.2500 
G0 X9.6500 Y26.0000 
G1 Z-0.2500 
G1 X10.3500 Y26.0000 
G1 Z0.2500 
G0 X9.6500 Y25.9000 
G1 Z-0.2500 
G1 X10.3500 Y25.9000 
G1 Z0.2500 
G0 X9.6500 Y25.8000 
G1 Z-0.2500 
G1 X10.3500 Y25.8000 
G1 Z0.2500 
G0 X9.6500 Y25.7000 
G1 Z-0.2500 
G1 X10.3500 Y25.7000 
G1 Z0.0000 
G0 X9.6500 Y26.3000 
G1 Z-0.5000 
G1 X10.3500 Y26.3000 
G1 Z0.0000 
G0 X9.6500 Y26.2000 
G1 Z-0.5000 
G1 X10.3500 Y26.2000 
G1 Z0.0000 
G0 X9.6500 Y26.1000 
G1 Z-0.5000 
G1 X10.3500 Y26.1000 
G1 Z0.0000 
G0 X9.6500 Y26.0000 
G1 Z-0.5000 
G1 X10.3500 Y26.0000 
G1 Z0.0000 
G0 X9.6500 Y25.9000 
G1 Z-0.5000 
G1 X10.3500 Y25.9000 
G1 Z0.0000 
G0 X9.6500 Y25.8000 
G1 Z-0.5000 
G1 X10.3500 Y25.8000 
G1 Z0.0000 
G0 X9.6500 Y25.7000 
G1 Z-0.5000 
G1 X10.3500 Y25.7000 
G1 Z3.0000 
G0 X10.4500 Y26.3500 
G1 Z-0.2500 
G1 X11.1500 Y26.3500 
G1 X11.1500 Y25.6500 
G1 X10.4500 Y25.6500 
G1 X10.4500 Y26.3500 
G1 Z-0.5000 
G1 X11.1500 Y26.3500 
G1 X11.1500 Y25.6500 
G1 X10.4500 Y25.6500 
G1 X10.4500 Y26.3500 
G1 Z3.0000 
G0 X10.4500 Y26.3500 
G1 Z0.2500 
G0 X10.5000 Y26.3500 
G1 Z-0.2500 
G1 X10.5000 Y25.6500 
G1 Z0.2500 
G0 X10.5000 Y26.3500 
G1 Z-0.2500 
G1 X10.5000 Y25.6500 
G1 Z0.2500 
G0 X10.5000 Y26.3500 
G1 Z-0.2500 
G1 X10.5000 Y25.6500 
G1 Z0.2500 
G0 X10.5000 Y26.3500 
G1 Z-0.2500 
G1 X10.5000 Y25.6500 
G1 Z0.2500 
G0 X10.5000 Y26.3500 
G1 Z-0.2500 
G1 X10.5000 Y25.6500 
G1 Z0.2500 
G0 X10.5000 Y26.3500 
G1 Z-0.2500 
G1 X10.5000 Y25.6500 
G1 Z0.2500 
G0 X10.5000 Y26.3500 
G1 Z-0.2500 
G1 X10.5000 Y25.6500 
G1 Z0.0000 
G0 X10.5000 Y26.3500 
G1 Z-0.5000 
G1 X10.5000 Y25.6500 
G1 Z0.0000 
G0 X10.5000 Y26.3500 
G1 Z-0.5000 
G1 X10.5000 Y25.6500 
G1 Z0.0000 
G0 X10.5000 Y26.3500 
G1 Z-0.5000 
G1 X10.5000 Y25.6500 
G1 Z0.0000 
G0 X10.5000 Y26.3500 
G1 Z-0.5000 
G1 X10.5000 Y25.6500 
G1 Z0.0000 
G0 X10.5000 Y26.3500 
G1 Z-0.5000 
G1 X10.5000 Y25.6500 
G1 Z0.0000 
G0 X10.5000 Y26.3500 
G1 Z-0.5000 
G1 X10.5000 Y25.6500 
G1 Z0.0000 
G0 X10.5000 Y26.3500 
G1 Z-0.5000 
G1 X10.5000 Y25.6500 
G1 Z3.0000 
G0 X14.4500 Y26.3500 
G1 Z-0.2500 
G1 X15.1500 Y26.3500 
G1 X15.1500 Y25.6500 
G1 X14.4500 Y25.6500 
G1 X14.4500 Y26.3500 
G1 Z-0.5000 
G1 X15.1500 Y26.3500 
G1 X15.1500 Y25.6500 
G1 X14.4500 Y25.6500 
G1 X14.4500 Y26.3500 
G1 Z3.0000 
G0 X14.4500 Y26.3500 
G1 Z0.2500 
G0 X14.4500 Y26.3000 
G1 Z-0.2500 
G1 X15.1500 Y26.3000 
G1 Z0.2500 
G0 X14.4500 Y26.2000 
G1 Z-0.2500 
G1 X15.1500 Y26.2000 
G1 Z0.2500 
G0 X14.4500 Y26.1000 
G1 Z-0.2500 
G1 X15.1500 Y26.1000 
G1 Z0.2500 
G0 X14.4500 Y26.0000 
G1 Z-0.2500 
G1 X15.1500 Y26.0000 
G1 Z0.2500 
G0 X14.4500 Y25.9000 
G1 Z-0.2500 
G1 X15.1500 Y25.9000 
G1 Z0.2500 
G0 X14.4500 Y25.8000 
G1 Z-0.2500 
G1 X15.1500 Y25.8000 
G1 Z0.2500 
G0 X14.4500 Y25.7000 
G1 Z-0.2500 
G1 X15.1500 Y25.7000 
G1 Z0.0000 
G0 X14.4500 Y26.3000 
G1 Z-0.5000 
G1 X15.1500 Y26.3000 
G1 Z0.0000 
G0 X14.4500 Y26.2000 
G1 Z-0.5000 
G1 X15.1500 Y26.2000 
G1 Z0.0000 
G0 X14.4500 Y26.1000 
G1 Z-0.5000 
G1 X15.1500 Y26.1000 
G1 Z0.0000 
G0 X14.4500 Y26.0000 
G1 Z-0.5000 
G1 X15.1500 Y26.0000 
G1 Z0.0000 
G0 X14.4500 Y25.9000 
G1 Z-0.5000 
G1 X15.1500 Y25.9000 
G1 Z0.0000 
G0 X14.4500 Y25.8000 
G1 Z-0.5000 
G1 X15.1500 Y25.8000 
G1 Z0.0000 
G0 X14.4500 Y25.7000 
G1 Z-0.5000 
G1 X15.1500 Y25.7000 
G1 Z3.0000 
G0 X15.2500 Y26.3500 
G1 Z-0.2500 
G1 X15.9500 Y26.3500 
G1 X15.9500 Y25.6500 
G1 X15.2500 Y25.6500 
G1 X15.2500 Y26.3500 
G1 Z-0.5000 
G1 X15.9500 Y26.3500 
G1 X15.9500 Y25.6500 
G1 X15.2500 Y25.6500 
G1 X15.2500 Y26.3500 
G1 Z3.0000 
G0 X15.2500 Y26.3500 
G1 Z0.2500 
G0 X15.3000 Y26.3500 
G1 Z-0.2500 
G1 X15.3000 Y25.6500 
G1 Z0.2500 
G0 X15.3000 Y26.3500 
G1 Z-0.2500 
G1 X15.3000 Y25.6500 
G1 Z0.2500 
G0 X15.3000 Y26.3500 
G1 Z-0.2500 
G1 X15.3000 Y25.6500 
G1 Z0.2500 
G0 X15.3000 Y26.3500 
G1 Z-0.2500 
G1 X15.3000 Y25.6500 
G1 Z0.2500 
G0 X15.3000 Y26.3500 
G1 Z-0.2500 
G1 X15.3000 Y25.6500 
G1 Z0.2500 
G0 X15.3000 Y26.3500 
G1 Z-0.2500 
G1 X15.3000 Y25.6500 
G1 Z0.2500 
G0 X15.3000 Y26.3500 
G1 Z-0.2500 
G1 X15.3000 Y25.6500 
G1 Z0.0000 
G0 X15.3000 Y26.3500 
G1 Z-0.5000 
G1 X15.3000 Y25.6500 
G1 Z0.0000 
G0 X15.3000 Y26.3500 
G1 Z-0.5000 
G1 X15.3000 Y25.6500 
G1 Z0.0000 
G0 X15.3000 Y26.3500 
G1 Z-0.5000 
G1 X15.3000 Y25.6500 
G1 Z0.0000 
G0 X15.3000 Y26.3500 
G1 Z-0.5000 
G1 X15.3000 Y25.6500 
G1 Z0.0000 
G0 X15.3000 Y26.3500 
G1 Z-0.5000 
G1 X15.3000 Y25.6500 
G1 Z0.0000 
G0 X15.3000 Y26.3500 
G1 Z-0.5000 
G1 X15.3000 Y25.6500 
G1 Z0.0000 
G0 X15.3000 Y26.3500 
G1 Z-0.5000 
G1 X15.3000 Y25.6500 
G1 Z3.0000 
G0 X16.0500 Y26.3500 
G1 Z-0.2500 
G1 X16.7500 Y26.3500 
G1 X16.7500 Y25.6500 
G1 X16.0500 Y25.6500 
G1 X16.0500 Y26.3500 
G1 Z-0.5000 
G1 X16.7500 Y26.3500 
G1 X16.7500 Y25.6500 
G1 X16.0500 Y25.6500 
G1 X16.0500 Y26.3500 
G1 Z3.0000 
G0 X16.0500 Y26.3500 
G1 Z0.2500 
G0 X16.0500 Y26.3000 
G1 Z-0.2500 
G1 X16.7500 Y26.3000 
G1 Z0.2500 
G0 X16.0500 Y26.2000 
G1 Z-0.2500 
G1 X16.7500 Y26.2000 
G1 Z0.2500 
G0 X16.0500 Y26.1000 
G1 Z-0.2500 
G1 X16.7500 Y26.1000 
G1 Z0.2500 
G0 X16.0500 Y26.0000 
G1 Z-0.2500 
G1 X16.7500 Y26.0000 
G1 Z0.2500 
G0 X16.0500 Y25.9000 
G1 Z-0.2500 
G1 X16.7500 Y25.9000 
G1 Z0.2500 
G0 X16.0500 Y25.8000 
G1 Z-0.2500 
G1 X16.7500 Y25.8000 
G1 Z0.2500 
G0 X16.0500 Y25.7000 
G1 Z-0.2500 
G1 X16.7500 Y25.7000 
G1 Z0.0000 
G0 X16.0500 Y26.3000 
G1 Z-0.5000 
G1 X16.7500 Y26.3000 
G1 Z0.0000 
G0 X16.0500 Y26.2000 
G1 Z-0.5000 
G1 X16.7500 Y26.2000 
G1 Z0.0000 
G0 X16.0500 Y26.1000 
G1 Z-0.5000 
G1 X16.7500 Y26.1000 
G1 Z0.0000 
G0 X16.0500 Y26.0000 
G1 Z-0.5000 
G1 X16.7500 Y26.0000 
G1 Z0.0000 
G0 X16.0500 Y25.9000 
G1 Z-0.5000 
G1 X16.7500 Y25.9000 
G1 Z0.0000 
G0 X16.0500 Y25.8000 
G1 Z-0.5000 
G1 X16.7500 Y25.8000 
G1 Z0.0000 
G0 X16.0500 Y25.7000 
G1 Z-0.5000 
G1 X16.7500 Y25.7000 
G1 Z3.0000 
G0 X17.6500 Y26.3500 
G1 Z-0.2500 
G1 X18.3500 Y26.3500 
G1 X18.3500 Y25.6500 
G1 X17.6500 Y25.6500 
G1 X17.6500 Y26.3500 
G1 Z-0.5000 
G1 X18.3500 Y26.3500 
G1 X18.3500 Y25.6500 
G1 X17.6500 Y25.6500 
G1 X17.6500 Y26.3500 
G1 Z3.0000 
G0 X17.6500 Y26.3500 
G1 Z0.2500 
G0 X17.6500 Y26.3000 
G1 Z-0.2500 
G1 X18.3500 Y26.3000 
G1 Z0.2500 
G0 X17.6500 Y26.2000 
G1 Z-0.2500 
G1 X18.3500 Y26.2000 
G1 Z0.2500 
G0 X17.6500 Y26.1000 
G1 Z-0.2500 
G1 X18.3500 Y26.1000 
G1 Z0.2500 
G0 X17.6500 Y26.0000 
G1 Z-0.2500 
G1 X18.3500 Y26.0000 
G1 Z0.2500 
G0 X17.6500 Y25.9000 
G1 Z-0.2500 
G1 X18.3500 Y25.9000 
G1 Z0.2500 
G0 X17.6500 Y25.8000 
G1 Z-0.2500 
G1 X18.3500 Y25.8000 
G1 Z0.2500 
G0 X17.6500 Y25.7000 
G1 Z-0.2500 
G1 X18.3500 Y25.7000 
G1 Z0.0000 
G0 X17.6500 Y26.3000 
G1 Z-0.5000 
G1 X18.3500 Y26.3000 
G1 Z0.0000 
G0 X17.6500 Y26.2000 
G1 Z-0.5000 
G1 X18.3500 Y26.2000 
G1 Z0.0000 
G0 X17.6500 Y26.1000 
G1 Z-0.5000 
G1 X18.3500 Y26.1000 
G1 Z0.0000 
G0 X17.6500 Y26.0000 
G1 Z-0.5000 
G1 X18.3500 Y26.0000 
G1 Z0.0000 
G0 X17.6500 Y25.9000 
G1 Z-0.5000 
G1 X18.3500 Y25.9000 
G1 Z0.0000 
G0 X17.6500 Y25.8000 
G1 Z-0.5000 
G1 X18.3500 Y25.8000 
G1 Z0.0000 
G0 X17.6500 Y25.7000 
G1 Z-0.5000 
G1 X18.3500 Y25.7000 
G1 Z3.0000 
G0 X18.4500 Y26.3500 
G1 Z-0.2500 
G1 X19.1500 Y26.3500 
G1 X19.1500 Y25.6500 
G1 X18.4500 Y25.6500 
G1 X18.4500 Y26.3500 
G1 Z-0.5000 
G1 X19.1500 Y26.3500 
G1 X19.1500 Y25.6500 
G1 X18.4500 Y25.6500 
G1 X18.4500 Y26.3500 
G1 Z3.0000 
G0 X18.4500 Y26.3500 
G1 Z0.2500 
G0 X18.5000 Y26.3500 
G1 Z-0.2500 
G1 X18.5000 Y25.6500 
G1 Z0.2500 
G0 X18.5000 Y26.3500 
G1 Z-0.2500 
G1 X18.5000 Y25.6500 
G1 Z0.2500 
G0 X18.5000 Y26.3500 
G1 Z-0.2500 
G1 X18.5000 Y25.6500 
G1 Z0.2500 
G0 X18.5000 Y26.3500 
G1 Z-0.2500 
G1 X18.5000 Y25.6500 
G1 Z0.2500 
G0 X18.5000 Y26.3500 
G1 Z-0.2500 
G1 X18.5000 Y25.6500 
G1 Z0.2500 
G0 X18.5000 Y26.3500 
G1 Z-0.2500 
G1 X18.5000 Y25.6500 
G1 Z0.2500 
G0 X18.5000 Y26.3500 
G1 Z-0.2500 
G1 X18.5000 Y25.6500 
G1 Z0.0000 
G0 X18.5000 Y26.3500 
G1 Z-0.5000 
G1 X18.5000 Y25.6500 
G1 Z0.0000 
G0 X18.5000 Y26.3500 
G1 Z-0.5000 
G1 X18.5000 Y25.6500 
G1 Z0.0000 
G0 X18.5000 Y26.3500 
G1 Z-0.5000 
G1 X18.5000 Y25.6500 
G1 Z0.0000 
G0 X18.5000 Y26.3500 
G1 Z-0.5000 
G1 X18.5000 Y25.6500 
G1 Z0.0000 
G0 X18.5000 Y26.3500 
G1 Z-0.5000 
G1 X18.5000 Y25.6500 
G1 Z0.0000 
G0 X18.5000 Y26.3500 
G1 Z-0.5000 
G1 X18.5000 Y25.6500 
G1 Z0.0000 
G0 X18.5000 Y26.3500 
G1 Z-0.5000 
G1 X18.5000 Y25.6500 
G1 Z3.0000 
G0 X19.2500 Y26.3500 
G1 Z-0.2500 
G1 X19.9500 Y26.3500 
G1 X19.9500 Y25.6500 
G1 X19.2500 Y25.6500 
G1 X19.2500 Y26.3500 
G1 Z-0.5000 
G1 X19.9500 Y26.3500 
G1 X19.9500 Y25.6500 
G1 X19.2500 Y25.6500 
G1 X19.2500 Y26.3500 
G1 Z3.0000 
G0 X19.2500 Y26.3500 
G1 Z0.2500 
G0 X19.2500 Y26.3000 
G1 Z-0.2500 
G1 X19.9500 Y26.3000 
G1 Z0.2500 
G0 X19.2500 Y26.2000 
G1 Z-0.2500 
G1 X19.9500 Y26.2000 
G1 Z0.2500 
G0 X19.2500 Y26.1000 
G1 Z-0.2500 
G1 X19.9500 Y26.1000 
G1 Z0.2500 
G0 X19.2500 Y26.0000 
G1 Z-0.2500 
G1 X19.9500 Y26.0000 
G1 Z0.2500 
G0 X19.2500 Y25.9000 
G1 Z-0.2500 
G1 X19.9500 Y25.9000 
G1 Z0.2500 
G0 X19.2500 Y25.8000 
G1 Z-0.2500 
G1 X19.9500 Y25.8000 
G1 Z0.2500 
G0 X19.2500 Y25.7000 
G1 Z-0.2500 
G1 X19.9500 Y25.7000 
G1 Z0.0000 
G0 X19.2500 Y26.3000 
G1 Z-0.5000 
G1 X19.9500 Y26.3000 
G1 Z0.0000 
G0 X19.2500 Y26.2000 
G1 Z-0.5000 
G1 X19.9500 Y26.2000 
G1 Z0.0000 
G0 X19.2500 Y26.1000 
G1 Z-0.5000 
G1 X19.9500 Y26.1000 
G1 Z0.0000 
G0 X19.2500 Y26.0000 
G1 Z-0.5000 
G1 X19.9500 Y26.0000 
G1 Z0.0000 
G0 X19.2500 Y25.9000 
G1 Z-0.5000 
G1 X19.9500 Y25.9000 
G1 Z0.0000 
G0 X19.2500 Y25.8000 
G1 Z-0.5000 
G1 X19.9500 Y25.8000 
G1 Z0.0000 
G0 X19.2500 Y25.7000 
G1 Z-0.5000 
G1 X19.9500 Y25.7000 
G1 Z3.0000 
G0 X20.8500 Y26.3500 
G1 Z-0.2500 
G1 X21.5500 Y26.3500 
G1 X21.5500 Y25.6500 
G1 X20.8500 Y25.6500 
G1 X20.8500 Y26.3500 
G1 Z-0.5000 
G1 X21.5500 Y26.3500 
G1 X21.5500 Y25.6500 
G1 X20.8500 Y25.6500 
G1 X20.8500 Y26.3500 
G1 Z3.0000 
G0 X20.8500 Y26.3500 
G1 Z0.2500 
G0 X20.8500 Y26.3000 
G1 Z-0.2500 
G1 X21.5500 Y26.3000 
G1 Z0.2500 
G0 X20.8500 Y26.2000 
G1 Z-0.2500 
G1 X21.5500 Y26.2000 
G1 Z0.2500 
G0 X20.8500 Y26.1000 
G1 Z-0.2500 
G1 X21.5500 Y26.1000 
G1 Z0.2500 
G0 X20.8500 Y26.0000 
G1 Z-0.2500 
G1 X21.5500 Y26.0000 
G1 Z0.2500 
G0 X20.8500 Y25.9000 
G1 Z-0.2500 
G1 X21.5500 Y25.9000 
G1 Z0.2500 
G0 X20.8500 Y25.8000 
G1 Z-0.2500 
G1 X21.5500 Y25.8000 
G1 Z0.2500 
G0 X20.8500 Y25.7000 
G1 Z-0.2500 
G1 X21.5500 Y25.7000 
G1 Z0.0000 
G0 X20.8500 Y26.3000 
G1 Z-0.5000 
G1 X21.5500 Y26.3000 
G1 Z0.0000 
G0 X20.8500 Y26.2000 
G1 Z-0.5000 
G1 X21.5500 Y26.2000 
G1 Z0.0000 
G0 X20.8500 Y26.1000 
G1 Z-0.5000 
G1 X21.5500 Y26.1000 
G1 Z0.0000 
G0 X20.8500 Y26.0000 
G1 Z-0.5000 
G1 X21.5500 Y26.0000 
G1 Z0.0000 
G0 X20.8500 Y25.9000 
G1 Z-0.5000 
G1 X21.5500 Y25.9000 
G1 Z0.0000 
G0 X20.8500 Y25.8000 
G1 Z-0.5000 
G1 X21.5500 Y25.8000 
G1 Z0.0000 
G0 X20.8500 Y25.7000 
G1 Z-0.5000 
G1 X21.5500 Y25.7000 
G1 Z3.0000 
G0 X21.6500 Y26.3500 
G1 Z-0.2500 
G1 X22.3500 Y26.3500 
G1 X22.3500 Y25.6500 
G1 X21.6500 Y25.6500 
G1 X21.6500 Y26.3500 
G1 Z-0.5000 
G1 X22.3500 Y26.3500 
G1 X22.3500 Y25.6500 
G1 X21.6500 Y25.6500 
G1 X21.6500 Y26.3500 
G1 Z3.0000 
G0 X21.6500 Y26.3500 
G1 Z0.2500 
G0 X21.7000 Y26.3500 
G1 Z-0.2500 
G1 X21.7000 Y25.6500 
G1 Z0.2500 
G0 X21.7000 Y26.3500 
G1 Z-0.2500 
G1 X21.7000 Y25.6500 
G1 Z0.2500 
G0 X21.7000 Y26.3500 
G1 Z-0.2500 
G1 X21.7000 Y25.6500 
G1 Z0.2500 
G0 X21.7000 Y26.3500 
G1 Z-0.2500 
G1 X21.7000 Y25.6500 
G1 Z0.2500 
G0 X21.7000 Y26.3500 
G1 Z-0.2500 
G1 X21.7000 Y25.6500 
G1 Z0.2500 
G0 X21.7000 Y26.3500 
G1 Z-0.2500 
G1 X21.7000 Y25.6500 
G1 Z0.2500 
G0 X21.7000 Y26.3500 
G1 Z-0.2500 
G1 X21.7000 Y25.6500 
G1 Z0.0000 
G0 X21.7000 Y26.3500 
G1 Z-0.5000 
G1 X21.7000 Y25.6500 
G1 Z0.0000 
G0 X21.7000 Y26.3500 
G1 Z-0.5000 
G1 X21.7000 Y25.6500 
G1 Z0.0000 
G0 X21.7000 Y26.3500 
G1 Z-0.5000 
G1 X21.7000 Y25.6500 
G1 Z0.0000 
G0 X21.7000 Y26.3500 
G1 Z-0.5000 
G1 X21.7000 Y25.6500 
G1 Z0.0000 
G0 X21.7000 Y26.3500 
G1 Z-0.5000 
G1 X21.7000 Y25.6500 
G1 Z0.0000 
G0 X21.7000 Y26.3500 
G1 Z-0.5000 
G1 X21.7000 Y25.6500 
G1 Z0.0000 
G0 X21.7000 Y26.3500 
G1 Z-0.5000 
G1 X21.7000 Y25.6500 
G1 Z3.0000 
G0 X22.4500 Y26.3500 
G1 Z-0.2500 
G1 X23.1500 Y26.3500 
G1 X23.1500 Y25.6500 
G1 X22.4500 Y25.6500 
G1 X22.4500 Y26.3500 
G1 Z-0.5000 
G1 X23.1500 Y26.3500 
G1 X23.1500 Y25.6500 
G1 X22.4500 Y25.6500 
G1 X22.4500 Y26.3500 
G1 Z3.0000 
G0 X22.4500 Y26.3500 
G1 Z0.2500 
G0 X22.4500 Y26.3000 
G1 Z-0.2500 
G1 X23.1500 Y26.3000 
G1 Z0.2500 
G0 X22.4500 Y26.2000 
G1 Z-0.2500 
G1 X23.1500 Y26.2000 
G1 Z0.2500 
G0 X22.4500 Y26.1000 
G1 Z-0.2500 
G1 X23.1500 Y26.1000 
G1 Z0.2500 
G0 X22.4500 Y26.0000 
G1 Z-0.2500 
G1 X23.1500 Y26.0000 
G1 Z0.2500 
G0 X22.4500 Y25.9000 
G1 Z-0.2500 
G1 X23.1500 Y25.9000 
G1 Z0.2500 
G0 X22.4500 Y25.8000 
G1 Z-0.2500 
G1 X23.1500 Y25.8000 
G1 Z0.2500 
G0 X22.4500 Y25.7000 
G1 Z-0.2500 
G1 X23.1500 Y25.7000 
G1 Z0.0000 
G0 X22.4500 Y26.3000 
G1 Z-0.5000 
G1 X23.1500 Y26.3000 
G1 Z0.0000 
G0 X22.4500 Y26.2000 
G1 Z-0.5000 
G1 X23.1500 Y26.2000 
G1 Z0.0000 
G0 X22.4500 Y26.1000 
G1 Z-0.5000 
G1 X23.1500 Y26.1000 
G1 Z0.0000 
G0 X22.4500 Y26.0000 
G1 Z-0.5000 
G1 X23.1500 Y26.0000 
G1 Z0.0000 
G0 X22.4500 Y25.9000 
G1 Z-0.5000 
G1 X23.1500 Y25.9000 
G1 Z0.0000 
G0 X22.4500 Y25.8000 
G1 Z-0.5000 
G1 X23.1500 Y25.8000 
G1 Z0.0000 
G0 X22.4500 Y25.7000 
G1 Z-0.5000 
G1 X23.1500 Y25.7000 
G1 Z3.0000 
G0 X23.2500 Y26.3500 
G1 Z-0.2500 
G1 X23.9500 Y26.3500 
G1 X23.9500 Y25.6500 
G1 X23.2500 Y25.6500 
G1 X23.2500 Y26.3500 
G1 Z-0.5000 
G1 X23.9500 Y26.3500 
G1 X23.9500 Y25.6500 
G1 X23.2500 Y25.6500 
G1 X23.2500 Y26.3500 
G1 Z3.0000 
G0 X23.2500 Y26.3500 
G1 Z0.2500 
G0 X23.3000 Y26.3500 
G1 Z-0.2500 
G1 X23.3000 Y25.6500 
G1 Z0.2500 
G0 X23.3000 Y26.3500 
G1 Z-0.2500 
G1 X23.3000 Y25.6500 
G1 Z0.2500 
G0 X23.3000 Y26.3500 
G1 Z-0.2500 
G1 X23.3000 Y25.6500 
G1 Z0.2500 
G0 X23.3000 Y26.3500 
G1 Z-0.2500 
G1 X23.3000 Y25.6500 
G1 Z0.2500 
G0 X23.3000 Y26.3500 
G1 Z-0.2500 
G1 X23.3000 Y25.6500 
G1 Z0.2500 
G0 X23.3000 Y26.3500 
G1 Z-0.2500 
G1 X23.3000 Y25.6500 
G1 Z0.2500 
G0 X23.3000 Y26.3500 
G1 Z-0.2500 
G1 X23.3000 Y25.6500 
G1 Z0.0000 
G0 X23.3000 Y26.3500 
G1 Z-0.5000 
G1 X23.3000 Y25.6500 
G1 Z0.0000 
G0 X23.3000 Y26.3500 
G1 Z-0.5000 
G1 X23.3000 Y25.6500 
G1 Z0.0000 
G0 X23.3000 Y26.3500 
G1 Z-0.5000 
G1 X23.3000 Y25.6500 
G1 Z0.0000 
G0 X23.3000 Y26.3500 
G1 Z-0.5000 
G1 X23.3000 Y25.6500 
G1 Z0.0000 
G0 X23.3000 Y26.3500 
G1 Z-0.5000 
G1 X23.3000 Y25.6500 
G1 Z0.0000 
G0 X23.3000 Y26.3500 
G1 Z-0.5000 
G1 X23.3000 Y25.6500 
G1 Z0.0000 
G0 X23.3000 Y26.3500 
G1 Z-0.5000 
G1 X23.3000 Y25.6500 
G1 Z3.0000 
G0 X24.0500 Y26.3500 
G1 Z-0.2500 
G1 X24.7500 Y26.3500 
G1 X24.7500 Y25.6500 
G1 X24.0500 Y25.6500 
G1 X24.0500 Y26.3500 
G1 Z-0.5000 
G1 X24.7500 Y26.3500 
G1 X24.7500 Y25.6500 
G1 X24.0500 Y25.6500 
G1 X24.0500 Y26.3500 
G1 Z3.0000 
G0 X24.0500 Y26.3500 
G1 Z0.2500 
G0 X24.0500 Y26.3000 
G1 Z-0.2500 
G1 X24.7500 Y26.3000 
G1 Z0.2500 
G0 X24.0500 Y26.2000 
G1 Z-0.2500 
G1 X24.7500 Y26.2000 
G1 Z0.2500 
G0 X24.0500 Y26.1000 
G1 Z-0.2500 
G1 X24.7500 Y26.1000 
G1 Z0.2500 
G0 X24.0500 Y26.0000 
G1 Z-0.2500 
G1 X24.7500 Y26.0000 
G1 Z0.2500 
G0 X24.0500 Y25.9000 
G1 Z-0.2500 
G1 X24.7500 Y25.9000 
G1 Z0.2500 
G0 X24.0500 Y25.8000 
G1 Z-0.2500 
G1 X24.7500 Y25.8000 
G1 Z0.2500 
G0 X24.0500 Y25.7000 
G1 Z-0.2500 
G1 X24.7500 Y25.7000 
G1 Z0.0000 
G0 X24.0500 Y26.3000 
G1 Z-0.5000 
G1 X24.7500 Y26.3000 
G1 Z0.0000 
G0 X24.0500 Y26.2000 
G1 Z-0.5000 
G1 X24.7500 Y26.2000 
G1 Z0.0000 
G0 X24.0500 Y26.1000 
G1 Z-0.5000 
G1 X24.7500 Y26.1000 
G1 Z0.0000 
G0 X24.0500 Y26.0000 
G1 Z-0.5000 
G1 X24.7500 Y26.0000 
G1 Z0.0000 
G0 X24.0500 Y25.9000 
G1 Z-0.5000 
G1 X24.7500 Y25.9000 
G1 Z0.0000 
G0 X24.0500 Y25.8000 
G1 Z-0.5000 
G1 X24.7500 Y25.8000 
G1 Z0.0000 
G0 X24.0500 Y25.7000 
G1 Z-0.5000 
G1 X24.7500 Y25.7000 
G1 Z3.0000 
G0 X24.8500 Y26.3500 
G1 Z-0.2500 
G1 X25.5500 Y26.3500 
G1 X25.5500 Y25.6500 
G1 X24.8500 Y25.6500 
G1 X24.8500 Y26.3500 
G1 Z-0.5000 
G1 X25.5500 Y26.3500 
G1 X25.5500 Y25.6500 
G1 X24.8500 Y25.6500 
G1 X24.8500 Y26.3500 
G1 Z3.0000 
G0 X24.8500 Y26.3500 
G1 Z0.2500 
G0 X24.9000 Y26.3500 
G1 Z-0.2500 
G1 X24.9000 Y25.6500 
G1 Z0.2500 
G0 X24.9000 Y26.3500 
G1 Z-0.2500 
G1 X24.9000 Y25.6500 
G1 Z0.2500 
G0 X24.9000 Y26.3500 
G1 Z-0.2500 
G1 X24.9000 Y25.6500 
G1 Z0.2500 
G0 X24.9000 Y26.3500 
G1 Z-0.2500 
G1 X24.9000 Y25.6500 
G1 Z0.2500 
G0 X24.9000 Y26.3500 
G1 Z-0.2500 
G1 X24.9000 Y25.6500 
G1 Z0.2500 
G0 X24.9000 Y26.3500 
G1 Z-0.2500 
G1 X24.9000 Y25.6500 
G1 Z0.2500 
G0 X24.9000 Y26.3500 
G1 Z-0.2500 
G1 X24.9000 Y25.6500 
G1 Z0.0000 
G0 X24.9000 Y26.3500 
G1 Z-0.5000 
G1 X24.9000 Y25.6500 
G1 Z0.0000 
G0 X24.9000 Y26.3500 
G1 Z-0.5000 
G1 X24.9000 Y25.6500 
G1 Z0.0000 
G0 X24.9000 Y26.3500 
G1 Z-0.5000 
G1 X24.9000 Y25.6500 
G1 Z0.0000 
G0 X24.9000 Y26.3500 
G1 Z-0.5000 
G1 X24.9000 Y25.6500 
G1 Z0.0000 
G0 X24.9000 Y26.3500 
G1 Z-0.5000 
G1 X24.9000 Y25.6500 
G1 Z0.0000 
G0 X24.9000 Y26.3500 
G1 Z-0.5000 
G1 X24.9000 Y25.6500 
G1 Z0.0000 
G0 X24.9000 Y26.3500 
G1 Z-0.5000 
G1 X24.9000 Y25.6500 
G1 Z3.0000 
G0 X25.6500 Y26.3500 
G1 Z-0.2500 
G1 X26.3500 Y26.3500 
G1 X26.3500 Y25.6500 
G1 X25.6500 Y25.6500 
G1 X25.6500 Y26.3500 
G1 Z-0.5000 
G1 X26.3500 Y26.3500 
G1 X26.3500 Y25.6500 
G1 X25.6500 Y25.6500 
G1 X25.6500 Y26.3500 
G1 Z3.0000 
G0 X25.6500 Y26.3500 
G1 Z0.2500 
G0 X25.6500 Y26.3000 
G1 Z-0.2500 
G1 X26.3500 Y26.3000 
G1 Z0.2500 
G0 X25.6500 Y26.2000 
G1 Z-0.2500 
G1 X26.3500 Y26.2000 
G1 Z0.2500 
G0 X25.6500 Y26.1000 
G1 Z-0.2500 
G1 X26.3500 Y26.1000 
G1 Z0.2500 
G0 X25.6500 Y26.0000 
G1 Z-0.2500 
G1 X26.3500 Y26.0000 
G1 Z0.2500 
G0 X25.6500 Y25.9000 
G1 Z-0.2500 
G1 X26.3500 Y25.9000 
G1 Z0.2500 
G0 X25.6500 Y25.8000 
G1 Z-0.2500 
G1 X26.3500 Y25.8000 
G1 Z0.2500 
G0 X25.6500 Y25.7000 
G1 Z-0.2500 
G1 X26.3500 Y25.7000 
G1 Z0.0000 
G0 X25.6500 Y26.3000 
G1 Z-0.5000 
G1 X26.3500 Y26.3000 
G1 Z0.0000 
G0 X25.6500 Y26.2000 
G1 Z-0.5000 
G1 X26.3500 Y26.2000 
G1 Z0.0000 
G0 X25.6500 Y26.1000 
G1 Z-0.5000 
G1 X26.3500 Y26.1000 
G1 Z0.0000 
G0 X25.6500 Y26.0000 
G1 Z-0.5000 
G1 X26.3500 Y26.0000 
G1 Z0.0000 
G0 X25.6500 Y25.9000 
G1 Z-0.5000 
G1 X26.3500 Y25.9000 
G1 Z0.0000 
G0 X25.6500 Y25.8000 
G1 Z-0.5000 
G1 X26.3500 Y25.8000 
G1 Z0.0000 
G0 X25.6500 Y25.7000 
G1 Z-0.5000 
G1 X26.3500 Y25.7000 
G1 Z3.0000 
G0 X3.2500 Y25.5500 
G1 Z-0.2500 
G1 X3.9500 Y25.5500 
G1 X3.9500 Y24.8500 
G1 X3.2500 Y24.8500 
G1 X3.2500 Y25.5500 
G1 Z-0.5000 
G1 X3.9500 Y25.5500 
G1 X3.9500 Y24.8500 
G1 X3.2500 Y24.8500 
G1 X3.2500 Y25.5500 
G1 Z3.0000 
G0 X3.2500 Y25.5500 
G1 Z0.2500 
G0 X3.3000 Y25.5500 
G1 Z-0.2500 
G1 X3.3000 Y24.8500 
G1 Z0.2500 
G0 X3.3000 Y25.5500 
G1 Z-0.2500 
G1 X3.3000 Y24.8500 
G1 Z0.2500 
G0 X3.3000 Y25.5500 
G1 Z-0.2500 
G1 X3.3000 Y24.8500 
G1 Z0.2500 
G0 X3.3000 Y25.5500 
G1 Z-0.2500 
G1 X3.3000 Y24.8500 
G1 Z0.2500 
G0 X3.3000 Y25.5500 
G1 Z-0.2500 
G1 X3.3000 Y24.8500 
G1 Z0.2500 
G0 X3.3000 Y25.5500 
G1 Z-0.2500 
G1 X3.3000 Y24.8500 
G1 Z0.2500 
G0 X3.3000 Y25.5500 
G1 Z-0.2500 
G1 X3.3000 Y24.8500 
G1 Z0.0000 
G0 X3.3000 Y25.5500 
G1 Z-0.5000 
G1 X3.3000 Y24.8500 
G1 Z0.0000 
G0 X3.3000 Y25.5500 
G1 Z-0.5000 
G1 X3.3000 Y24.8500 
G1 Z0.0000 
G0 X3.3000 Y25.5500 
G1 Z-0.5000 
G1 X3.3000 Y24.8500 
G1 Z0.0000 
G0 X3.3000 Y25.5500 
G1 Z-0.5000 
G1 X3.3000 Y24.8500 
G1 Z0.0000 
G0 X3.3000 Y25.5500 
G1 Z-0.5000 
G1 X3.3000 Y24.8500 
G1 Z0.0000 
G0 X3.3000 Y25.5500 
G1 Z-0.5000 
G1 X3.3000 Y24.8500 
G1 Z0.0000 
G0 X3.3000 Y25.5500 
G1 Z-0.5000 
G1 X3.3000 Y24.8500 
G1 Z3.0000 
G0 X8.0500 Y25.5500 
G1 Z-0.2500 
G1 X8.7500 Y25.5500 
G1 X8.7500 Y24.8500 
G1 X8.0500 Y24.8500 
G1 X8.0500 Y25.5500 
G1 Z-0.5000 
G1 X8.7500 Y25.5500 
G1 X8.7500 Y24.8500 
G1 X8.0500 Y24.8500 
G1 X8.0500 Y25.5500 
G1 Z3.0000 
G0 X8.0500 Y25.5500 
G1 Z0.2500 
G0 X8.1000 Y25.5500 
G1 Z-0.2500 
G1 X8.1000 Y24.8500 
G1 Z0.2500 
G0 X8.1000 Y25.5500 
G1 Z-0.2500 
G1 X8.1000 Y24.8500 
G1 Z0.2500 
G0 X8.1000 Y25.5500 
G1 Z-0.2500 
G1 X8.1000 Y24.8500 
G1 Z0.2500 
G0 X8.1000 Y25.5500 
G1 Z-0.2500 
G1 X8.1000 Y24.8500 
G1 Z0.2500 
G0 X8.1000 Y25.5500 
G1 Z-0.2500 
G1 X8.1000 Y24.8500 
G1 Z0.2500 
G0 X8.1000 Y25.5500 
G1 Z-0.2500 
G1 X8.1000 Y24.8500 
G1 Z0.2500 
G0 X8.1000 Y25.5500 
G1 Z-0.2500 
G1 X8.1000 Y24.8500 
G1 Z0.0000 
G0 X8.1000 Y25.5500 
G1 Z-0.5000 
G1 X8.1000 Y24.8500 
G1 Z0.0000 
G0 X8.1000 Y25.5500 
G1 Z-0.5000 
G1 X8.1000 Y24.8500 
G1 Z0.0000 
G0 X8.1000 Y25.5500 
G1 Z-0.5000 
G1 X8.1000 Y24.8500 
G1 Z0.0000 
G0 X8.1000 Y25.5500 
G1 Z-0.5000 
G1 X8.1000 Y24.8500 
G1 Z0.0000 
G0 X8.1000 Y25.5500 
G1 Z-0.5000 
G1 X8.1000 Y24.8500 
G1 Z0.0000 
G0 X8.1000 Y25.5500 
G1 Z-0.5000 
G1 X8.1000 Y24.8500 
G1 Z0.0000 
G0 X8.1000 Y25.5500 
G1 Z-0.5000 
G1 X8.1000 Y24.8500 
G1 Z3.0000 
G0 X9.6500 Y25.5500 
G1 Z-0.2500 
G1 X10.3500 Y25.5500 
G1 X10.3500 Y24.8500 
G1 X9.6500 Y24.8500 
G1 X9.6500 Y25.5500 
G1 Z-0.5000 
G1 X10.3500 Y25.5500 
G1 X10.3500 Y24.8500 
G1 X9.6500 Y24.8500 
G1 X9.6500 Y25.5500 
G1 Z3.0000 
G0 X9.6500 Y25.5500 
G1 Z0.2500 
G0 X9.7000 Y25.5500 
G1 Z-0.2500 
G1 X9.7000 Y24.8500 
G1 Z0.2500 
G0 X9.7000 Y25.5500 
G1 Z-0.2500 
G1 X9.7000 Y24.8500 
G1 Z0.2500 
G0 X9.7000 Y25.5500 
G1 Z-0.2500 
G1 X9.7000 Y24.8500 
G1 Z0.2500 
G0 X9.7000 Y25.5500 
G1 Z-0.2500 
G1 X9.7000 Y24.8500 
G1 Z0.2500 
G0 X9.7000 Y25.5500 
G1 Z-0.2500 
G1 X9.7000 Y24.8500 
G1 Z0.2500 
G0 X9.7000 Y25.5500 
G1 Z-0.2500 
G1 X9.7000 Y24.8500 
G1 Z0.2500 
G0 X9.7000 Y25.5500 
G1 Z-0.2500 
G1 X9.7000 Y24.8500 
G1 Z0.0000 
G0 X9.7000 Y25.5500 
G1 Z-0.5000 
G1 X9.7000 Y24.8500 
G1 Z0.0000 
G0 X9.7000 Y25.5500 
G1 Z-0.5000 
G1 X9.7000 Y24.8500 
G1 Z0.0000 
G0 X9.7000 Y25.5500 
G1 Z-0.5000 
G1 X9.7000 Y24.8500 
G1 Z0.0000 
G0 X9.7000 Y25.5500 
G1 Z-0.5000 
G1 X9.7000 Y24.8500 
G1 Z0.0000 
G0 X9.7000 Y25.5500 
G1 Z-0.5000 
G1 X9.7000 Y24.8500 
G1 Z0.0000 
G0 X9.7000 Y25.5500 
G1 Z-0.5000 
G1 X9.7000 Y24.8500 
G1 Z0.0000 
G0 X9.7000 Y25.5500 
G1 Z-0.5000 
G1 X9.7000 Y24.8500 
G1 Z3.0000 
G0 X11.2500 Y25.5500 
G1 Z-0.2500 
G1 X11.9500 Y25.5500 
G1 X11.9500 Y24.8500 
G1 X11.2500 Y24.8500 
G1 X11.2500 Y25.5500 
G1 Z-0.5000 
G1 X11.9500 Y25.5500 
G1 X11.9500 Y24.8500 
G1 X11.2500 Y24.8500 
G1 X11.2500 Y25.5500 
G1 Z3.0000 
G0 X11.2500 Y25.5500 
G1 Z0.2500 
G0 X11.3000 Y25.5500 
G1 Z-0.2500 
G1 X11.3000 Y24.8500 
G1 Z0.2500 
G0 X11.3000 Y25.5500 
G1 Z-0.2500 
G1 X11.3000 Y24.8500 
G1 Z0.2500 
G0 X11.3000 Y25.5500 
G1 Z-0.2500 
G1 X11.3000 Y24.8500 
G1 Z0.2500 
G0 X11.3000 Y25.5500 
G1 Z-0.2500 
G1 X11.3000 Y24.8500 
G1 Z0.2500 
G0 X11.3000 Y25.5500 
G1 Z-0.2500 
G1 X11.3000 Y24.8500 
G1 Z0.2500 
G0 X11.3000 Y25.5500 
G1 Z-0.2500 
G1 X11.3000 Y24.8500 
G1 Z0.2500 
G0 X11.3000 Y25.5500 
G1 Z-0.2500 
G1 X11.3000 Y24.8500 
G1 Z0.0000 
G0 X11.3000 Y25.5500 
G1 Z-0.5000 
G1 X11.3000 Y24.8500 
G1 Z0.0000 
G0 X11.3000 Y25.5500 
G1 Z-0.5000 
G1 X11.3000 Y24.8500 
G1 Z0.0000 
G0 X11.3000 Y25.5500 
G1 Z-0.5000 
G1 X11.3000 Y24.8500 
G1 Z0.0000 
G0 X11.3000 Y25.5500 
G1 Z-0.5000 
G1 X11.3000 Y24.8500 
G1 Z0.0000 
G0 X11.3000 Y25.5500 
G1 Z-0.5000 
G1 X11.3000 Y24.8500 
G1 Z0.0000 
G0 X11.3000 Y25.5500 
G1 Z-0.5000 
G1 X11.3000 Y24.8500 
G1 Z0.0000 
G0 X11.3000 Y25.5500 
G1 Z-0.5000 
G1 X11.3000 Y24.8500 
G1 Z3.0000 
G0 X13.6500 Y25.5500 
G1 Z-0.2500 
G1 X14.3500 Y25.5500 
G1 X14.3500 Y24.8500 
G1 X13.6500 Y24.8500 
G1 X13.6500 Y25.5500 
G1 Z-0.5000 
G1 X14.3500 Y25.5500 
G1 X14.3500 Y24.8500 
G1 X13.6500 Y24.8500 
G1 X13.6500 Y25.5500 
G1 Z3.0000 
G0 X13.6500 Y25.5500 
G1 Z0.2500 
G0 X13.6500 Y25.5000 
G1 Z-0.2500 
G1 X14.3500 Y25.5000 
G1 Z0.2500 
G0 X13.6500 Y25.4000 
G1 Z-0.2500 
G1 X14.3500 Y25.4000 
G1 Z0.2500 
G0 X13.6500 Y25.3000 
G1 Z-0.2500 
G1 X14.3500 Y25.3000 
G1 Z0.2500 
G0 X13.6500 Y25.2000 
G1 Z-0.2500 
G1 X14.3500 Y25.2000 
G1 Z0.2500 
G0 X13.6500 Y25.1000 
G1 Z-0.2500 
G1 X14.3500 Y25.1000 
G1 Z0.2500 
G0 X13.6500 Y25.0000 
G1 Z-0.2500 
G1 X14.3500 Y25.0000 
G1 Z0.2500 
G0 X13.6500 Y24.9000 
G1 Z-0.2500 
G1 X14.3500 Y24.9000 
G1 Z0.0000 
G0 X13.6500 Y25.5000 
G1 Z-0.5000 
G1 X14.3500 Y25.5000 
G1 Z0.0000 
G0 X13.6500 Y25.4000 
G1 Z-0.5000 
G1 X14.3500 Y25.4000 
G1 Z0.0000 
G0 X13.6500 Y25.3000 
G1 Z-0.5000 
G1 X14.3500 Y25.3000 
G1 Z0.0000 
G0 X13.6500 Y25.2000 
G1 Z-0.5000 
G1 X14.3500 Y25.2000 
G1 Z0.0000 
G0 X13.6500 Y25.1000 
G1 Z-0.5000 
G1 X14.3500 Y25.1000 
G1 Z0.0000 
G0 X13.6500 Y25.0000 
G1 Z-0.5000 
G1 X14.3500 Y25.0000 
G1 Z0.0000 
G0 X13.6500 Y24.9000 
G1 Z-0.5000 
G1 X14.3500 Y24.9000 
G1 Z3.0000 
G0 X14.4500 Y25.5500 
G1 Z-0.2500 
G1 X15.1500 Y25.5500 
G1 X15.1500 Y24.8500 
G1 X14.4500 Y24.8500 
G1 X14.4500 Y25.5500 
G1 Z-0.5000 
G1 X15.1500 Y25.5500 
G1 X15.1500 Y24.8500 
G1 X14.4500 Y24.8500 
G1 X14.4500 Y25.5500 
G1 Z3.0000 
G0 X14.4500 Y25.5500 
G1 Z0.2500 
G0 X14.5000 Y25.5500 
G1 Z-0.2500 
G1 X14.5000 Y24.8500 
G1 Z0.2500 
G0 X14.5000 Y25.5500 
G1 Z-0.2500 
G1 X14.5000 Y24.8500 
G1 Z0.2500 
G0 X14.5000 Y25.5500 
G1 Z-0.2500 
G1 X14.5000 Y24.8500 
G1 Z0.2500 
G0 X14.5000 Y25.5500 
G1 Z-0.2500 
G1 X14.5000 Y24.8500 
G1 Z0.2500 
G0 X14.5000 Y25.5500 
G1 Z-0.2500 
G1 X14.5000 Y24.8500 
G1 Z0.2500 
G0 X14.5000 Y25.5500 
G1 Z-0.2500 
G1 X14.5000 Y24.8500 
G1 Z0.2500 
G0 X14.5000 Y25.5500 
G1 Z-0.2500 
G1 X14.5000 Y24.8500 
G1 Z0.0000 
G0 X14.5000 Y25.5500 
G1 Z-0.5000 
G1 X14.5000 Y24.8500 
G1 Z0.0000 
G0 X14.5000 Y25.5500 
G1 Z-0.5000 
G1 X14.5000 Y24.8500 
G1 Z0.0000 
G0 X14.5000 Y25.5500 
G1 Z-0.5000 
G1 X14.5000 Y24.8500 
G1 Z0.0000 
G0 X14.5000 Y25.5500 
G1 Z-0.5000 
G1 X14.5000 Y24.8500 
G1 Z0.0000 
G0 X14.5000 Y25.5500 
G1 Z-0.5000 
G1 X14.5000 Y24.8500 
G1 Z0.0000 
G0 X14.5000 Y25.5500 
G1 Z-0.5000 
G1 X14.5000 Y24.8500 
G1 Z0.0000 
G0 X14.5000 Y25.5500 
G1 Z-0.5000 
G1 X14.5000 Y24.8500 
G1 Z3.0000 
G0 X15.2500 Y25.5500 
G1 Z-0.2500 
G1 X15.9500 Y25.5500 
G1 X15.9500 Y24.8500 
G1 X15.2500 Y24.8500 
G1 X15.2500 Y25.5500 
G1 Z-0.5000 
G1 X15.9500 Y25.5500 
G1 X15.9500 Y24.8500 
G1 X15.2500 Y24.8500 
G1 X15.2500 Y25.5500 
G1 Z3.0000 
G0 X15.2500 Y25.5500 
G1 Z0.2500 
G0 X15.2500 Y25.5000 
G1 Z-0.2500 
G1 X15.9500 Y25.5000 
G1 Z0.2500 
G0 X15.2500 Y25.4000 
G1 Z-0.2500 
G1 X15.9500 Y25.4000 
G1 Z0.2500 
G0 X15.2500 Y25.3000 
G1 Z-0.2500 
G1 X15.9500 Y25.3000 
G1 Z0.2500 
G0 X15.2500 Y25.2000 
G1 Z-0.2500 
G1 X15.9500 Y25.2000 
G1 Z0.2500 
G0 X15.2500 Y25.1000 
G1 Z-0.2500 
G1 X15.9500 Y25.1000 
G1 Z0.2500 
G0 X15.2500 Y25.0000 
G1 Z-0.2500 
G1 X15.9500 Y25.0000 
G1 Z0.2500 
G0 X15.2500 Y24.9000 
G1 Z-0.2500 
G1 X15.9500 Y24.9000 
G1 Z0.0000 
G0 X15.2500 Y25.5000 
G1 Z-0.5000 
G1 X15.9500 Y25.5000 
G1 Z0.0000 
G0 X15.2500 Y25.4000 
G1 Z-0.5000 
G1 X15.9500 Y25.4000 
G1 Z0.0000 
G0 X15.2500 Y25.3000 
G1 Z-0.5000 
G1 X15.9500 Y25.3000 
G1 Z0.0000 
G0 X15.2500 Y25.2000 
G1 Z-0.5000 
G1 X15.9500 Y25.2000 
G1 Z0.0000 
G0 X15.2500 Y25.1000 
G1 Z-0.5000 
G1 X15.9500 Y25.1000 
G1 Z0.0000 
G0 X15.2500 Y25.0000 
G1 Z-0.5000 
G1 X15.9500 Y25.0000 
G1 Z0.0000 
G0 X15.2500 Y24.9000 
G1 Z-0.5000 
G1 X15.9500 Y24.9000 
G1 Z3.0000 
G0 X16.8500 Y25.5500 
G1 Z-0.2500 
G1 X17.5500 Y25.5500 
G1 X17.5500 Y24.8500 
G1 X16.8500 Y24.8500 
G1 X16.8500 Y25.5500 
G1 Z-0.5000 
G1 X17.5500 Y25.5500 
G1 X17.5500 Y24.8500 
G1 X16.8500 Y24.8500 
G1 X16.8500 Y25.5500 
G1 Z3.0000 
G0 X16.8500 Y25.5500 
G1 Z0.2500 
G0 X16.8500 Y25.5000 
G1 Z-0.2500 
G1 X17.5500 Y25.5000 
G1 Z0.2500 
G0 X16.8500 Y25.4000 
G1 Z-0.2500 
G1 X17.5500 Y25.4000 
G1 Z0.2500 
G0 X16.8500 Y25.3000 
G1 Z-0.2500 
G1 X17.5500 Y25.3000 
G1 Z0.2500 
G0 X16.8500 Y25.2000 
G1 Z-0.2500 
G1 X17.5500 Y25.2000 
G1 Z0.2500 
G0 X16.8500 Y25.1000 
G1 Z-0.2500 
G1 X17.5500 Y25.1000 
G1 Z0.2500 
G0 X16.8500 Y25.0000 
G1 Z-0.2500 
G1 X17.5500 Y25.0000 
G1 Z0.2500 
G0 X16.8500 Y24.9000 
G1 Z-0.2500 
G1 X17.5500 Y24.9000 
G1 Z0.0000 
G0 X16.8500 Y25.5000 
G1 Z-0.5000 
G1 X17.5500 Y25.5000 
G1 Z0.0000 
G0 X16.8500 Y25.4000 
G1 Z-0.5000 
G1 X17.5500 Y25.4000 
G1 Z0.0000 
G0 X16.8500 Y25.3000 
G1 Z-0.5000 
G1 X17.5500 Y25.3000 
G1 Z0.0000 
G0 X16.8500 Y25.2000 
G1 Z-0.5000 
G1 X17.5500 Y25.2000 
G1 Z0.0000 
G0 X16.8500 Y25.1000 
G1 Z-0.5000 
G1 X17.5500 Y25.1000 
G1 Z0.0000 
G0 X16.8500 Y25.0000 
G1 Z-0.5000 
G1 X17.5500 Y25.0000 
G1 Z0.0000 
G0 X16.8500 Y24.9000 
G1 Z-0.5000 
G1 X17.5500 Y24.9000 
G1 Z3.0000 
G0 X18.4500 Y25.5500 
G1 Z-0.2500 
G1 X19.1500 Y25.5500 
G1 X19.1500 Y24.8500 
G1 X18.4500 Y24.8500 
G1 X18.4500 Y25.5500 
G1 Z-0.5000 
G1 X19.1500 Y25.5500 
G1 X19.1500 Y24.8500 
G1 X18.4500 Y24.8500 
G1 X18.4500 Y25.5500 
G1 Z3.0000 
G0 X18.4500 Y25.5500 
G1 Z0.2500 
G0 X18.4500 Y25.5000 
G1 Z-0.2500 
G1 X19.1500 Y25.5000 
G1 Z0.2500 
G0 X18.4500 Y25.4000 
G1 Z-0.2500 
G1 X19.1500 Y25.4000 
G1 Z0.2500 
G0 X18.4500 Y25.3000 
G1 Z-0.2500 
G1 X19.1500 Y25.3000 
G1 Z0.2500 
G0 X18.4500 Y25.2000 
G1 Z-0.2500 
G1 X19.1500 Y25.2000 
G1 Z0.2500 
G0 X18.4500 Y25.1000 
G1 Z-0.2500 
G1 X19.1500 Y25.1000 
G1 Z0.2500 
G0 X18.4500 Y25.0000 
G1 Z-0.2500 
G1 X19.1500 Y25.0000 
G1 Z0.2500 
G0 X18.4500 Y24.9000 
G1 Z-0.2500 
G1 X19.1500 Y24.9000 
G1 Z0.0000 
G0 X18.4500 Y25.5000 
G1 Z-0.5000 
G1 X19.1500 Y25.5000 
G1 Z0.0000 
G0 X18.4500 Y25.4000 
G1 Z-0.5000 
G1 X19.1500 Y25.4000 
G1 Z0.0000 
G0 X18.4500 Y25.3000 
G1 Z-0.5000 
G1 X19.1500 Y25.3000 
G1 Z0.0000 
G0 X18.4500 Y25.2000 
G1 Z-0.5000 
G1 X19.1500 Y25.2000 
G1 Z0.0000 
G0 X18.4500 Y25.1000 
G1 Z-0.5000 
G1 X19.1500 Y25.1000 
G1 Z0.0000 
G0 X18.4500 Y25.0000 
G1 Z-0.5000 
G1 X19.1500 Y25.0000 
G1 Z0.0000 
G0 X18.4500 Y24.9000 
G1 Z-0.5000 
G1 X19.1500 Y24.9000 
G1 Z3.0000 
G0 X19.2500 Y25.5500 
G1 Z-0.2500 
G1 X19.9500 Y25.5500 
G1 X19.9500 Y24.8500 
G1 X19.2500 Y24.8500 
G1 X19.2500 Y25.5500 
G1 Z-0.5000 
G1 X19.9500 Y25.5500 
G1 X19.9500 Y24.8500 
G1 X19.2500 Y24.8500 
G1 X19.2500 Y25.5500 
G1 Z3.0000 
G0 X19.2500 Y25.5500 
G1 Z0.2500 
G0 X19.3000 Y25.5500 
G1 Z-0.2500 
G1 X19.3000 Y24.8500 
G1 Z0.2500 
G0 X19.3000 Y25.5500 
G1 Z-0.2500 
G1 X19.3000 Y24.8500 
G1 Z0.2500 
G0 X19.3000 Y25.5500 
G1 Z-0.2500 
G1 X19.3000 Y24.8500 
G1 Z0.2500 
G0 X19.3000 Y25.5500 
G1 Z-0.2500 
G1 X19.3000 Y24.8500 
G1 Z0.2500 
G0 X19.3000 Y25.5500 
G1 Z-0.2500 
G1 X19.3000 Y24.8500 
G1 Z0.2500 
G0 X19.3000 Y25.5500 
G1 Z-0.2500 
G1 X19.3000 Y24.8500 
G1 Z0.2500 
G0 X19.3000 Y25.5500 
G1 Z-0.2500 
G1 X19.3000 Y24.8500 
G1 Z0.0000 
G0 X19.3000 Y25.5500 
G1 Z-0.5000 
G1 X19.3000 Y24.8500 
G1 Z0.0000 
G0 X19.3000 Y25.5500 
G1 Z-0.5000 
G1 X19.3000 Y24.8500 
G1 Z0.0000 
G0 X19.3000 Y25.5500 
G1 Z-0.5000 
G1 X19.3000 Y24.8500 
G1 Z0.0000 
G0 X19.3000 Y25.5500 
G1 Z-0.5000 
G1 X19.3000 Y24.8500 
G1 Z0.0000 
G0 X19.3000 Y25.5500 
G1 Z-0.5000 
G1 X19.3000 Y24.8500 
G1 Z0.0000 
G0 X19.3000 Y25.5500 
G1 Z-0.5000 
G1 X19.3000 Y24.8500 
G1 Z0.0000 
G0 X19.3000 Y25.5500 
G1 Z-0.5000 
G1 X19.3000 Y24.8500 
G1 Z3.0000 
G0 X20.8500 Y25.5500 
G1 Z-0.2500 
G1 X21.5500 Y25.5500 
G1 X21.5500 Y24.8500 
G1 X20.8500 Y24.8500 
G1 X20.8500 Y25.5500 
G1 Z-0.5000 
G1 X21.5500 Y25.5500 
G1 X21.5500 Y24.8500 
G1 X20.8500 Y24.8500 
G1 X20.8500 Y25.5500 
G1 Z3.0000 
G0 X20.8500 Y25.5500 
G1 Z0.2500 
G0 X20.9000 Y25.5500 
G1 Z-0.2500 
G1 X20.9000 Y24.8500 
G1 Z0.2500 
G0 X20.9000 Y25.5500 
G1 Z-0.2500 
G1 X20.9000 Y24.8500 
G1 Z0.2500 
G0 X20.9000 Y25.5500 
G1 Z-0.2500 
G1 X20.9000 Y24.8500 
G1 Z0.2500 
G0 X20.9000 Y25.5500 
G1 Z-0.2500 
G1 X20.9000 Y24.8500 
G1 Z0.2500 
G0 X20.9000 Y25.5500 
G1 Z-0.2500 
G1 X20.9000 Y24.8500 
G1 Z0.2500 
G0 X20.9000 Y25.5500 
G1 Z-0.2500 
G1 X20.9000 Y24.8500 
G1 Z0.2500 
G0 X20.9000 Y25.5500 
G1 Z-0.2500 
G1 X20.9000 Y24.8500 
G1 Z0.0000 
G0 X20.9000 Y25.5500 
G1 Z-0.5000 
G1 X20.9000 Y24.8500 
G1 Z0.0000 
G0 X20.9000 Y25.5500 
G1 Z-0.5000 
G1 X20.9000 Y24.8500 
G1 Z0.0000 
G0 X20.9000 Y25.5500 
G1 Z-0.5000 
G1 X20.9000 Y24.8500 
G1 Z0.0000 
G0 X20.9000 Y25.5500 
G1 Z-0.5000 
G1 X20.9000 Y24.8500 
G1 Z0.0000 
G0 X20.9000 Y25.5500 
G1 Z-0.5000 
G1 X20.9000 Y24.8500 
G1 Z0.0000 
G0 X20.9000 Y25.5500 
G1 Z-0.5000 
G1 X20.9000 Y24.8500 
G1 Z0.0000 
G0 X20.9000 Y25.5500 
G1 Z-0.5000 
G1 X20.9000 Y24.8500 
G1 Z3.0000 
G0 X25.6500 Y25.5500 
G1 Z-0.2500 
G1 X26.3500 Y25.5500 
G1 X26.3500 Y24.8500 
G1 X25.6500 Y24.8500 
G1 X25.6500 Y25.5500 
G1 Z-0.5000 
G1 X26.3500 Y25.5500 
G1 X26.3500 Y24.8500 
G1 X25.6500 Y24.8500 
G1 X25.6500 Y25.5500 
G1 Z3.0000 
G0 X25.6500 Y25.5500 
G1 Z0.2500 
G0 X25.7000 Y25.5500 
G1 Z-0.2500 
G1 X25.7000 Y24.8500 
G1 Z0.2500 
G0 X25.7000 Y25.5500 
G1 Z-0.2500 
G1 X25.7000 Y24.8500 
G1 Z0.2500 
G0 X25.7000 Y25.5500 
G1 Z-0.2500 
G1 X25.7000 Y24.8500 
G1 Z0.2500 
G0 X25.7000 Y25.5500 
G1 Z-0.2500 
G1 X25.7000 Y24.8500 
G1 Z0.2500 
G0 X25.7000 Y25.5500 
G1 Z-0.2500 
G1 X25.7000 Y24.8500 
G1 Z0.2500 
G0 X25.7000 Y25.5500 
G1 Z-0.2500 
G1 X25.7000 Y24.8500 
G1 Z0.2500 
G0 X25.7000 Y25.5500 
G1 Z-0.2500 
G1 X25.7000 Y24.8500 
G1 Z0.0000 
G0 X25.7000 Y25.5500 
G1 Z-0.5000 
G1 X25.7000 Y24.8500 
G1 Z0.0000 
G0 X25.7000 Y25.5500 
G1 Z-0.5000 
G1 X25.7000 Y24.8500 
G1 Z0.0000 
G0 X25.7000 Y25.5500 
G1 Z-0.5000 
G1 X25.7000 Y24.8500 
G1 Z0.0000 
G0 X25.7000 Y25.5500 
G1 Z-0.5000 
G1 X25.7000 Y24.8500 
G1 Z0.0000 
G0 X25.7000 Y25.5500 
G1 Z-0.5000 
G1 X25.7000 Y24.8500 
G1 Z0.0000 
G0 X25.7000 Y25.5500 
G1 Z-0.5000 
G1 X25.7000 Y24.8500 
G1 Z0.0000 
G0 X25.7000 Y25.5500 
G1 Z-0.5000 
G1 X25.7000 Y24.8500 
G1 Z3.0000 
G0 X3.2500 Y24.7500 
G1 Z-0.2500 
G1 X3.9500 Y24.7500 
G1 X3.9500 Y24.0500 
G1 X3.2500 Y24.0500 
G1 X3.2500 Y24.7500 
G1 Z-0.5000 
G1 X3.9500 Y24.7500 
G1 X3.9500 Y24.0500 
G1 X3.2500 Y24.0500 
G1 X3.2500 Y24.7500 
G1 Z3.0000 
G0 X3.2500 Y24.7500 
G1 Z0.2500 
G0 X3.2500 Y24.7000 
G1 Z-0.2500 
G1 X3.9500 Y24.7000 
G1 Z0.2500 
G0 X3.2500 Y24.6000 
G1 Z-0.2500 
G1 X3.9500 Y24.6000 
G1 Z0.2500 
G0 X3.2500 Y24.5000 
G1 Z-0.2500 
G1 X3.9500 Y24.5000 
G1 Z0.2500 
G0 X3.2500 Y24.4000 
G1 Z-0.2500 
G1 X3.9500 Y24.4000 
G1 Z0.2500 
G0 X3.2500 Y24.3000 
G1 Z-0.2500 
G1 X3.9500 Y24.3000 
G1 Z0.2500 
G0 X3.2500 Y24.2000 
G1 Z-0.2500 
G1 X3.9500 Y24.2000 
G1 Z0.2500 
G0 X3.2500 Y24.1000 
G1 Z-0.2500 
G1 X3.9500 Y24.1000 
G1 Z0.0000 
G0 X3.2500 Y24.7000 
G1 Z-0.5000 
G1 X3.9500 Y24.7000 
G1 Z0.0000 
G0 X3.2500 Y24.6000 
G1 Z-0.5000 
G1 X3.9500 Y24.6000 
G1 Z0.0000 
G0 X3.2500 Y24.5000 
G1 Z-0.5000 
G1 X3.9500 Y24.5000 
G1 Z0.0000 
G0 X3.2500 Y24.4000 
G1 Z-0.5000 
G1 X3.9500 Y24.4000 
G1 Z0.0000 
G0 X3.2500 Y24.3000 
G1 Z-0.5000 
G1 X3.9500 Y24.3000 
G1 Z0.0000 
G0 X3.2500 Y24.2000 
G1 Z-0.5000 
G1 X3.9500 Y24.2000 
G1 Z0.0000 
G0 X3.2500 Y24.1000 
G1 Z-0.5000 
G1 X3.9500 Y24.1000 
G1 Z3.0000 
G0 X4.8500 Y24.7500 
G1 Z-0.2500 
G1 X5.5500 Y24.7500 
G1 X5.5500 Y24.0500 
G1 X4.8500 Y24.0500 
G1 X4.8500 Y24.7500 
G1 Z-0.5000 
G1 X5.5500 Y24.7500 
G1 X5.5500 Y24.0500 
G1 X4.8500 Y24.0500 
G1 X4.8500 Y24.7500 
G1 Z3.0000 
G0 X4.8500 Y24.7500 
G1 Z0.2500 
G0 X4.8500 Y24.7000 
G1 Z-0.2500 
G1 X5.5500 Y24.7000 
G1 Z0.2500 
G0 X4.8500 Y24.6000 
G1 Z-0.2500 
G1 X5.5500 Y24.6000 
G1 Z0.2500 
G0 X4.8500 Y24.5000 
G1 Z-0.2500 
G1 X5.5500 Y24.5000 
G1 Z0.2500 
G0 X4.8500 Y24.4000 
G1 Z-0.2500 
G1 X5.5500 Y24.4000 
G1 Z0.2500 
G0 X4.8500 Y24.3000 
G1 Z-0.2500 
G1 X5.5500 Y24.3000 
G1 Z0.2500 
G0 X4.8500 Y24.2000 
G1 Z-0.2500 
G1 X5.5500 Y24.2000 
G1 Z0.2500 
G0 X4.8500 Y24.1000 
G1 Z-0.2500 
G1 X5.5500 Y24.1000 
G1 Z0.0000 
G0 X4.8500 Y24.7000 
G1 Z-0.5000 
G1 X5.5500 Y24.7000 
G1 Z0.0000 
G0 X4.8500 Y24.6000 
G1 Z-0.5000 
G1 X5.5500 Y24.6000 
G1 Z0.0000 
G0 X4.8500 Y24.5000 
G1 Z-0.5000 
G1 X5.5500 Y24.5000 
G1 Z0.0000 
G0 X4.8500 Y24.4000 
G1 Z-0.5000 
G1 X5.5500 Y24.4000 
G1 Z0.0000 
G0 X4.8500 Y24.3000 
G1 Z-0.5000 
G1 X5.5500 Y24.3000 
G1 Z0.0000 
G0 X4.8500 Y24.2000 
G1 Z-0.5000 
G1 X5.5500 Y24.2000 
G1 Z0.0000 
G0 X4.8500 Y24.1000 
G1 Z-0.5000 
G1 X5.5500 Y24.1000 
G1 Z3.0000 
G0 X5.6500 Y24.7500 
G1 Z-0.2500 
G1 X6.3500 Y24.7500 
G1 X6.3500 Y24.0500 
G1 X5.6500 Y24.0500 
G1 X5.6500 Y24.7500 
G1 Z-0.5000 
G1 X6.3500 Y24.7500 
G1 X6.3500 Y24.0500 
G1 X5.6500 Y24.0500 
G1 X5.6500 Y24.7500 
G1 Z3.0000 
G0 X5.6500 Y24.7500 
G1 Z0.2500 
G0 X5.7000 Y24.7500 
G1 Z-0.2500 
G1 X5.7000 Y24.0500 
G1 Z0.2500 
G0 X5.7000 Y24.7500 
G1 Z-0.2500 
G1 X5.7000 Y24.0500 
G1 Z0.2500 
G0 X5.7000 Y24.7500 
G1 Z-0.2500 
G1 X5.7000 Y24.0500 
G1 Z0.2500 
G0 X5.7000 Y24.7500 
G1 Z-0.2500 
G1 X5.7000 Y24.0500 
G1 Z0.2500 
G0 X5.7000 Y24.7500 
G1 Z-0.2500 
G1 X5.7000 Y24.0500 
G1 Z0.2500 
G0 X5.7000 Y24.7500 
G1 Z-0.2500 
G1 X5.7000 Y24.0500 
G1 Z0.2500 
G0 X5.7000 Y24.7500 
G1 Z-0.2500 
G1 X5.7000 Y24.0500 
G1 Z0.0000 
G0 X5.7000 Y24.7500 
G1 Z-0.5000 
G1 X5.7000 Y24.0500 
G1 Z0.0000 
G0 X5.7000 Y24.7500 
G1 Z-0.5000 
G1 X5.7000 Y24.0500 
G1 Z0.0000 
G0 X5.7000 Y24.7500 
G1 Z-0.5000 
G1 X5.7000 Y24.0500 
G1 Z0.0000 
G0 X5.7000 Y24.7500 
G1 Z-0.5000 
G1 X5.7000 Y24.0500 
G1 Z0.0000 
G0 X5.7000 Y24.7500 
G1 Z-0.5000 
G1 X5.7000 Y24.0500 
G1 Z0.0000 
G0 X5.7000 Y24.7500 
G1 Z-0.5000 
G1 X5.7000 Y24.0500 
G1 Z0.0000 
G0 X5.7000 Y24.7500 
G1 Z-0.5000 
G1 X5.7000 Y24.0500 
G1 Z3.0000 
G0 X6.4500 Y24.7500 
G1 Z-0.2500 
G1 X7.1500 Y24.7500 
G1 X7.1500 Y24.0500 
G1 X6.4500 Y24.0500 
G1 X6.4500 Y24.7500 
G1 Z-0.5000 
G1 X7.1500 Y24.7500 
G1 X7.1500 Y24.0500 
G1 X6.4500 Y24.0500 
G1 X6.4500 Y24.7500 
G1 Z3.0000 
G0 X6.4500 Y24.7500 
G1 Z0.2500 
G0 X6.4500 Y24.7000 
G1 Z-0.2500 
G1 X7.1500 Y24.7000 
G1 Z0.2500 
G0 X6.4500 Y24.6000 
G1 Z-0.2500 
G1 X7.1500 Y24.6000 
G1 Z0.2500 
G0 X6.4500 Y24.5000 
G1 Z-0.2500 
G1 X7.1500 Y24.5000 
G1 Z0.2500 
G0 X6.4500 Y24.4000 
G1 Z-0.2500 
G1 X7.1500 Y24.4000 
G1 Z0.2500 
G0 X6.4500 Y24.3000 
G1 Z-0.2500 
G1 X7.1500 Y24.3000 
G1 Z0.2500 
G0 X6.4500 Y24.2000 
G1 Z-0.2500 
G1 X7.1500 Y24.2000 
G1 Z0.2500 
G0 X6.4500 Y24.1000 
G1 Z-0.2500 
G1 X7.1500 Y24.1000 
G1 Z0.0000 
G0 X6.4500 Y24.7000 
G1 Z-0.5000 
G1 X7.1500 Y24.7000 
G1 Z0.0000 
G0 X6.4500 Y24.6000 
G1 Z-0.5000 
G1 X7.1500 Y24.6000 
G1 Z0.0000 
G0 X6.4500 Y24.5000 
G1 Z-0.5000 
G1 X7.1500 Y24.5000 
G1 Z0.0000 
G0 X6.4500 Y24.4000 
G1 Z-0.5000 
G1 X7.1500 Y24.4000 
G1 Z0.0000 
G0 X6.4500 Y24.3000 
G1 Z-0.5000 
G1 X7.1500 Y24.3000 
G1 Z0.0000 
G0 X6.4500 Y24.2000 
G1 Z-0.5000 
G1 X7.1500 Y24.2000 
G1 Z0.0000 
G0 X6.4500 Y24.1000 
G1 Z-0.5000 
G1 X7.1500 Y24.1000 
G1 Z3.0000 
G0 X8.0500 Y24.7500 
G1 Z-0.2500 
G1 X8.7500 Y24.7500 
G1 X8.7500 Y24.0500 
G1 X8.0500 Y24.0500 
G1 X8.0500 Y24.7500 
G1 Z-0.5000 
G1 X8.7500 Y24.7500 
G1 X8.7500 Y24.0500 
G1 X8.0500 Y24.0500 
G1 X8.0500 Y24.7500 
G1 Z3.0000 
G0 X8.0500 Y24.7500 
G1 Z0.2500 
G0 X8.0500 Y24.7000 
G1 Z-0.2500 
G1 X8.7500 Y24.7000 
G1 Z0.2500 
G0 X8.0500 Y24.6000 
G1 Z-0.2500 
G1 X8.7500 Y24.6000 
G1 Z0.2500 
G0 X8.0500 Y24.5000 
G1 Z-0.2500 
G1 X8.7500 Y24.5000 
G1 Z0.2500 
G0 X8.0500 Y24.4000 
G1 Z-0.2500 
G1 X8.7500 Y24.4000 
G1 Z0.2500 
G0 X8.0500 Y24.3000 
G1 Z-0.2500 
G1 X8.7500 Y24.3000 
G1 Z0.2500 
G0 X8.0500 Y24.2000 
G1 Z-0.2500 
G1 X8.7500 Y24.2000 
G1 Z0.2500 
G0 X8.0500 Y24.1000 
G1 Z-0.2500 
G1 X8.7500 Y24.1000 
G1 Z0.0000 
G0 X8.0500 Y24.7000 
G1 Z-0.5000 
G1 X8.7500 Y24.7000 
G1 Z0.0000 
G0 X8.0500 Y24.6000 
G1 Z-0.5000 
G1 X8.7500 Y24.6000 
G1 Z0.0000 
G0 X8.0500 Y24.5000 
G1 Z-0.5000 
G1 X8.7500 Y24.5000 
G1 Z0.0000 
G0 X8.0500 Y24.4000 
G1 Z-0.5000 
G1 X8.7500 Y24.4000 
G1 Z0.0000 
G0 X8.0500 Y24.3000 
G1 Z-0.5000 
G1 X8.7500 Y24.3000 
G1 Z0.0000 
G0 X8.0500 Y24.2000 
G1 Z-0.5000 
G1 X8.7500 Y24.2000 
G1 Z0.0000 
G0 X8.0500 Y24.1000 
G1 Z-0.5000 
G1 X8.7500 Y24.1000 
G1 Z3.0000 
G0 X10.4500 Y24.7500 
G1 Z-0.2500 
G1 X11.1500 Y24.7500 
G1 X11.1500 Y24.0500 
G1 X10.4500 Y24.0500 
G1 X10.4500 Y24.7500 
G1 Z-0.5000 
G1 X11.1500 Y24.7500 
G1 X11.1500 Y24.0500 
G1 X10.4500 Y24.0500 
G1 X10.4500 Y24.7500 
G1 Z3.0000 
G0 X10.4500 Y24.7500 
G1 Z0.2500 
G0 X10.5000 Y24.7500 
G1 Z-0.2500 
G1 X10.5000 Y24.0500 
G1 Z0.2500 
G0 X10.5000 Y24.7500 
G1 Z-0.2500 
G1 X10.5000 Y24.0500 
G1 Z0.2500 
G0 X10.5000 Y24.7500 
G1 Z-0.2500 
G1 X10.5000 Y24.0500 
G1 Z0.2500 
G0 X10.5000 Y24.7500 
G1 Z-0.2500 
G1 X10.5000 Y24.0500 
G1 Z0.2500 
G0 X10.5000 Y24.7500 
G1 Z-0.2500 
G1 X10.5000 Y24.0500 
G1 Z0.2500 
G0 X10.5000 Y24.7500 
G1 Z-0.2500 
G1 X10.5000 Y24.0500 
G1 Z0.2500 
G0 X10.5000 Y24.7500 
G1 Z-0.2500 
G1 X10.5000 Y24.0500 
G1 Z0.0000 
G0 X10.5000 Y24.7500 
G1 Z-0.5000 
G1 X10.5000 Y24.0500 
G1 Z0.0000 
G0 X10.5000 Y24.7500 
G1 Z-0.5000 
G1 X10.5000 Y24.0500 
G1 Z0.0000 
G0 X10.5000 Y24.7500 
G1 Z-0.5000 
G1 X10.5000 Y24.0500 
G1 Z0.0000 
G0 X10.5000 Y24.7500 
G1 Z-0.5000 
G1 X10.5000 Y24.0500 
G1 Z0.0000 
G0 X10.5000 Y24.7500 
G1 Z-0.5000 
G1 X10.5000 Y24.0500 
G1 Z0.0000 
G0 X10.5000 Y24.7500 
G1 Z-0.5000 
G1 X10.5000 Y24.0500 
G1 Z0.0000 
G0 X10.5000 Y24.7500 
G1 Z-0.5000 
G1 X10.5000 Y24.0500 
G1 Z3.0000 
G0 X11.2500 Y24.7500 
G1 Z-0.2500 
G1 X11.9500 Y24.7500 
G1 X11.9500 Y24.0500 
G1 X11.2500 Y24.0500 
G1 X11.2500 Y24.7500 
G1 Z-0.5000 
G1 X11.9500 Y24.7500 
G1 X11.9500 Y24.0500 
G1 X11.2500 Y24.0500 
G1 X11.2500 Y24.7500 
G1 Z3.0000 
G0 X11.2500 Y24.7500 
G1 Z0.2500 
G0 X11.2500 Y24.7000 
G1 Z-0.2500 
G1 X11.9500 Y24.7000 
G1 Z0.2500 
G0 X11.2500 Y24.6000 
G1 Z-0.2500 
G1 X11.9500 Y24.6000 
G1 Z0.2500 
G0 X11.2500 Y24.5000 
G1 Z-0.2500 
G1 X11.9500 Y24.5000 
G1 Z0.2500 
G0 X11.2500 Y24.4000 
G1 Z-0.2500 
G1 X11.9500 Y24.4000 
G1 Z0.2500 
G0 X11.2500 Y24.3000 
G1 Z-0.2500 
G1 X11.9500 Y24.3000 
G1 Z0.2500 
G0 X11.2500 Y24.2000 
G1 Z-0.2500 
G1 X11.9500 Y24.2000 
G1 Z0.2500 
G0 X11.2500 Y24.1000 
G1 Z-0.2500 
G1 X11.9500 Y24.1000 
G1 Z0.0000 
G0 X11.2500 Y24.7000 
G1 Z-0.5000 
G1 X11.9500 Y24.7000 
G1 Z0.0000 
G0 X11.2500 Y24.6000 
G1 Z-0.5000 
G1 X11.9500 Y24.6000 
G1 Z0.0000 
G0 X11.2500 Y24.5000 
G1 Z-0.5000 
G1 X11.9500 Y24.5000 
G1 Z0.0000 
G0 X11.2500 Y24.4000 
G1 Z-0.5000 
G1 X11.9500 Y24.4000 
G1 Z0.0000 
G0 X11.2500 Y24.3000 
G1 Z-0.5000 
G1 X11.9500 Y24.3000 
G1 Z0.0000 
G0 X11.2500 Y24.2000 
G1 Z-0.5000 
G1 X11.9500 Y24.2000 
G1 Z0.0000 
G0 X11.2500 Y24.1000 
G1 Z-0.5000 
G1 X11.9500 Y24.1000 
G1 Z3.0000 
G0 X13.6500 Y24.7500 
G1 Z-0.2500 
G1 X14.3500 Y24.7500 
G1 X14.3500 Y24.0500 
G1 X13.6500 Y24.0500 
G1 X13.6500 Y24.7500 
G1 Z-0.5000 
G1 X14.3500 Y24.7500 
G1 X14.3500 Y24.0500 
G1 X13.6500 Y24.0500 
G1 X13.6500 Y24.7500 
G1 Z3.0000 
G0 X13.6500 Y24.7500 
G1 Z0.2500 
G0 X13.7000 Y24.7500 
G1 Z-0.2500 
G1 X13.7000 Y24.0500 
G1 Z0.2500 
G0 X13.7000 Y24.7500 
G1 Z-0.2500 
G1 X13.7000 Y24.0500 
G1 Z0.2500 
G0 X13.7000 Y24.7500 
G1 Z-0.2500 
G1 X13.7000 Y24.0500 
G1 Z0.2500 
G0 X13.7000 Y24.7500 
G1 Z-0.2500 
G1 X13.7000 Y24.0500 
G1 Z0.2500 
G0 X13.7000 Y24.7500 
G1 Z-0.2500 
G1 X13.7000 Y24.0500 
G1 Z0.2500 
G0 X13.7000 Y24.7500 
G1 Z-0.2500 
G1 X13.7000 Y24.0500 
G1 Z0.2500 
G0 X13.7000 Y24.7500 
G1 Z-0.2500 
G1 X13.7000 Y24.0500 
G1 Z0.0000 
G0 X13.7000 Y24.7500 
G1 Z-0.5000 
G1 X13.7000 Y24.0500 
G1 Z0.0000 
G0 X13.7000 Y24.7500 
G1 Z-0.5000 
G1 X13.7000 Y24.0500 
G1 Z0.0000 
G0 X13.7000 Y24.7500 
G1 Z-0.5000 
G1 X13.7000 Y24.0500 
G1 Z0.0000 
G0 X13.7000 Y24.7500 
G1 Z-0.5000 
G1 X13.7000 Y24.0500 
G1 Z0.0000 
G0 X13.7000 Y24.7500 
G1 Z-0.5000 
G1 X13.7000 Y24.0500 
G1 Z0.0000 
G0 X13.7000 Y24.7500 
G1 Z-0.5000 
G1 X13.7000 Y24.0500 
G1 Z0.0000 
G0 X13.7000 Y24.7500 
G1 Z-0.5000 
G1 X13.7000 Y24.0500 
G1 Z3.0000 
G0 X15.2500 Y24.7500 
G1 Z-0.2500 
G1 X15.9500 Y24.7500 
G1 X15.9500 Y24.0500 
G1 X15.2500 Y24.0500 
G1 X15.2500 Y24.7500 
G1 Z-0.5000 
G1 X15.9500 Y24.7500 
G1 X15.9500 Y24.0500 
G1 X15.2500 Y24.0500 
G1 X15.2500 Y24.7500 
G1 Z3.0000 
G0 X15.2500 Y24.7500 
G1 Z0.2500 
G0 X15.3000 Y24.7500 
G1 Z-0.2500 
G1 X15.3000 Y24.0500 
G1 Z0.2500 
G0 X15.3000 Y24.7500 
G1 Z-0.2500 
G1 X15.3000 Y24.0500 
G1 Z0.2500 
G0 X15.3000 Y24.7500 
G1 Z-0.2500 
G1 X15.3000 Y24.0500 
G1 Z0.2500 
G0 X15.3000 Y24.7500 
G1 Z-0.2500 
G1 X15.3000 Y24.0500 
G1 Z0.2500 
G0 X15.3000 Y24.7500 
G1 Z-0.2500 
G1 X15.3000 Y24.0500 
G1 Z0.2500 
G0 X15.3000 Y24.7500 
G1 Z-0.2500 
G1 X15.3000 Y24.0500 
G1 Z0.2500 
G0 X15.3000 Y24.7500 
G1 Z-0.2500 
G1 X15.3000 Y24.0500 
G1 Z0.0000 
G0 X15.3000 Y24.7500 
G1 Z-0.5000 
G1 X15.3000 Y24.0500 
G1 Z0.0000 
G0 X15.3000 Y24.7500 
G1 Z-0.5000 
G1 X15.3000 Y24.0500 
G1 Z0.0000 
G0 X15.3000 Y24.7500 
G1 Z-0.5000 
G1 X15.3000 Y24.0500 
G1 Z0.0000 
G0 X15.3000 Y24.7500 
G1 Z-0.5000 
G1 X15.3000 Y24.0500 
G1 Z0.0000 
G0 X15.3000 Y24.7500 
G1 Z-0.5000 
G1 X15.3000 Y24.0500 
G1 Z0.0000 
G0 X15.3000 Y24.7500 
G1 Z-0.5000 
G1 X15.3000 Y24.0500 
G1 Z0.0000 
G0 X15.3000 Y24.7500 
G1 Z-0.5000 
G1 X15.3000 Y24.0500 
G1 Z3.0000 
G0 X16.0500 Y24.7500 
G1 Z-0.2500 
G1 X16.7500 Y24.7500 
G1 X16.7500 Y24.0500 
G1 X16.0500 Y24.0500 
G1 X16.0500 Y24.7500 
G1 Z-0.5000 
G1 X16.7500 Y24.7500 
G1 X16.7500 Y24.0500 
G1 X16.0500 Y24.0500 
G1 X16.0500 Y24.7500 
G1 Z3.0000 
G0 X16.0500 Y24.7500 
G1 Z0.2500 
G0 X16.0500 Y24.7000 
G1 Z-0.2500 
G1 X16.7500 Y24.7000 
G1 Z0.2500 
G0 X16.0500 Y24.6000 
G1 Z-0.2500 
G1 X16.7500 Y24.6000 
G1 Z0.2500 
G0 X16.0500 Y24.5000 
G1 Z-0.2500 
G1 X16.7500 Y24.5000 
G1 Z0.2500 
G0 X16.0500 Y24.4000 
G1 Z-0.2500 
G1 X16.7500 Y24.4000 
G1 Z0.2500 
G0 X16.0500 Y24.3000 
G1 Z-0.2500 
G1 X16.7500 Y24.3000 
G1 Z0.2500 
G0 X16.0500 Y24.2000 
G1 Z-0.2500 
G1 X16.7500 Y24.2000 
G1 Z0.2500 
G0 X16.0500 Y24.1000 
G1 Z-0.2500 
G1 X16.7500 Y24.1000 
G1 Z0.0000 
G0 X16.0500 Y24.7000 
G1 Z-0.5000 
G1 X16.7500 Y24.7000 
G1 Z0.0000 
G0 X16.0500 Y24.6000 
G1 Z-0.5000 
G1 X16.7500 Y24.6000 
G1 Z0.0000 
G0 X16.0500 Y24.5000 
G1 Z-0.5000 
G1 X16.7500 Y24.5000 
G1 Z0.0000 
G0 X16.0500 Y24.4000 
G1 Z-0.5000 
G1 X16.7500 Y24.4000 
G1 Z0.0000 
G0 X16.0500 Y24.3000 
G1 Z-0.5000 
G1 X16.7500 Y24.3000 
G1 Z0.0000 
G0 X16.0500 Y24.2000 
G1 Z-0.5000 
G1 X16.7500 Y24.2000 
G1 Z0.0000 
G0 X16.0500 Y24.1000 
G1 Z-0.5000 
G1 X16.7500 Y24.1000 
G1 Z3.0000 
G0 X20.8500 Y24.7500 
G1 Z-0.2500 
G1 X21.5500 Y24.7500 
G1 X21.5500 Y24.0500 
G1 X20.8500 Y24.0500 
G1 X20.8500 Y24.7500 
G1 Z-0.5000 
G1 X21.5500 Y24.7500 
G1 X21.5500 Y24.0500 
G1 X20.8500 Y24.0500 
G1 X20.8500 Y24.7500 
G1 Z3.0000 
G0 X20.8500 Y24.7500 
G1 Z0.2500 
G0 X20.8500 Y24.7000 
G1 Z-0.2500 
G1 X21.5500 Y24.7000 
G1 Z0.2500 
G0 X20.8500 Y24.6000 
G1 Z-0.2500 
G1 X21.5500 Y24.6000 
G1 Z0.2500 
G0 X20.8500 Y24.5000 
G1 Z-0.2500 
G1 X21.5500 Y24.5000 
G1 Z0.2500 
G0 X20.8500 Y24.4000 
G1 Z-0.2500 
G1 X21.5500 Y24.4000 
G1 Z0.2500 
G0 X20.8500 Y24.3000 
G1 Z-0.2500 
G1 X21.5500 Y24.3000 
G1 Z0.2500 
G0 X20.8500 Y24.2000 
G1 Z-0.2500 
G1 X21.5500 Y24.2000 
G1 Z0.2500 
G0 X20.8500 Y24.1000 
G1 Z-0.2500 
G1 X21.5500 Y24.1000 
G1 Z0.0000 
G0 X20.8500 Y24.7000 
G1 Z-0.5000 
G1 X21.5500 Y24.7000 
G1 Z0.0000 
G0 X20.8500 Y24.6000 
G1 Z-0.5000 
G1 X21.5500 Y24.6000 
G1 Z0.0000 
G0 X20.8500 Y24.5000 
G1 Z-0.5000 
G1 X21.5500 Y24.5000 
G1 Z0.0000 
G0 X20.8500 Y24.4000 
G1 Z-0.5000 
G1 X21.5500 Y24.4000 
G1 Z0.0000 
G0 X20.8500 Y24.3000 
G1 Z-0.5000 
G1 X21.5500 Y24.3000 
G1 Z0.0000 
G0 X20.8500 Y24.2000 
G1 Z-0.5000 
G1 X21.5500 Y24.2000 
G1 Z0.0000 
G0 X20.8500 Y24.1000 
G1 Z-0.5000 
G1 X21.5500 Y24.1000 
G1 Z3.0000 
G0 X22.4500 Y24.7500 
G1 Z-0.2500 
G1 X23.1500 Y24.7500 
G1 X23.1500 Y24.0500 
G1 X22.4500 Y24.0500 
G1 X22.4500 Y24.7500 
G1 Z-0.5000 
G1 X23.1500 Y24.7500 
G1 X23.1500 Y24.0500 
G1 X22.4500 Y24.0500 
G1 X22.4500 Y24.7500 
G1 Z3.0000 
G0 X22.4500 Y24.7500 
G1 Z0.2500 
G0 X22.4500 Y24.7000 
G1 Z-0.2500 
G1 X23.1500 Y24.7000 
G1 Z0.2500 
G0 X22.4500 Y24.6000 
G1 Z-0.2500 
G1 X23.1500 Y24.6000 
G1 Z0.2500 
G0 X22.4500 Y24.5000 
G1 Z-0.2500 
G1 X23.1500 Y24.5000 
G1 Z0.2500 
G0 X22.4500 Y24.4000 
G1 Z-0.2500 
G1 X23.1500 Y24.4000 
G1 Z0.2500 
G0 X22.4500 Y24.3000 
G1 Z-0.2500 
G1 X23.1500 Y24.3000 
G1 Z0.2500 
G0 X22.4500 Y24.2000 
G1 Z-0.2500 
G1 X23.1500 Y24.2000 
G1 Z0.2500 
G0 X22.4500 Y24.1000 
G1 Z-0.2500 
G1 X23.1500 Y24.1000 
G1 Z0.0000 
G0 X22.4500 Y24.7000 
G1 Z-0.5000 
G1 X23.1500 Y24.7000 
G1 Z0.0000 
G0 X22.4500 Y24.6000 
G1 Z-0.5000 
G1 X23.1500 Y24.6000 
G1 Z0.0000 
G0 X22.4500 Y24.5000 
G1 Z-0.5000 
G1 X23.1500 Y24.5000 
G1 Z0.0000 
G0 X22.4500 Y24.4000 
G1 Z-0.5000 
G1 X23.1500 Y24.4000 
G1 Z0.0000 
G0 X22.4500 Y24.3000 
G1 Z-0.5000 
G1 X23.1500 Y24.3000 
G1 Z0.0000 
G0 X22.4500 Y24.2000 
G1 Z-0.5000 
G1 X23.1500 Y24.2000 
G1 Z0.0000 
G0 X22.4500 Y24.1000 
G1 Z-0.5000 
G1 X23.1500 Y24.1000 
G1 Z3.0000 
G0 X23.2500 Y24.7500 
G1 Z-0.2500 
G1 X23.9500 Y24.7500 
G1 X23.9500 Y24.0500 
G1 X23.2500 Y24.0500 
G1 X23.2500 Y24.7500 
G1 Z-0.5000 
G1 X23.9500 Y24.7500 
G1 X23.9500 Y24.0500 
G1 X23.2500 Y24.0500 
G1 X23.2500 Y24.7500 
G1 Z3.0000 
G0 X23.2500 Y24.7500 
G1 Z0.2500 
G0 X23.3000 Y24.7500 
G1 Z-0.2500 
G1 X23.3000 Y24.0500 
G1 Z0.2500 
G0 X23.3000 Y24.7500 
G1 Z-0.2500 
G1 X23.3000 Y24.0500 
G1 Z0.2500 
G0 X23.3000 Y24.7500 
G1 Z-0.2500 
G1 X23.3000 Y24.0500 
G1 Z0.2500 
G0 X23.3000 Y24.7500 
G1 Z-0.2500 
G1 X23.3000 Y24.0500 
G1 Z0.2500 
G0 X23.3000 Y24.7500 
G1 Z-0.2500 
G1 X23.3000 Y24.0500 
G1 Z0.2500 
G0 X23.3000 Y24.7500 
G1 Z-0.2500 
G1 X23.3000 Y24.0500 
G1 Z0.2500 
G0 X23.3000 Y24.7500 
G1 Z-0.2500 
G1 X23.3000 Y24.0500 
G1 Z0.0000 
G0 X23.3000 Y24.7500 
G1 Z-0.5000 
G1 X23.3000 Y24.0500 
G1 Z0.0000 
G0 X23.3000 Y24.7500 
G1 Z-0.5000 
G1 X23.3000 Y24.0500 
G1 Z0.0000 
G0 X23.3000 Y24.7500 
G1 Z-0.5000 
G1 X23.3000 Y24.0500 
G1 Z0.0000 
G0 X23.3000 Y24.7500 
G1 Z-0.5000 
G1 X23.3000 Y24.0500 
G1 Z0.0000 
G0 X23.3000 Y24.7500 
G1 Z-0.5000 
G1 X23.3000 Y24.0500 
G1 Z0.0000 
G0 X23.3000 Y24.7500 
G1 Z-0.5000 
G1 X23.3000 Y24.0500 
G1 Z0.0000 
G0 X23.3000 Y24.7500 
G1 Z-0.5000 
G1 X23.3000 Y24.0500 
G1 Z3.0000 
G0 X24.0500 Y24.7500 
G1 Z-0.2500 
G1 X24.7500 Y24.7500 
G1 X24.7500 Y24.0500 
G1 X24.0500 Y24.0500 
G1 X24.0500 Y24.7500 
G1 Z-0.5000 
G1 X24.7500 Y24.7500 
G1 X24.7500 Y24.0500 
G1 X24.0500 Y24.0500 
G1 X24.0500 Y24.7500 
G1 Z3.0000 
G0 X24.0500 Y24.7500 
G1 Z0.2500 
G0 X24.0500 Y24.7000 
G1 Z-0.2500 
G1 X24.7500 Y24.7000 
G1 Z0.2500 
G0 X24.0500 Y24.6000 
G1 Z-0.2500 
G1 X24.7500 Y24.6000 
G1 Z0.2500 
G0 X24.0500 Y24.5000 
G1 Z-0.2500 
G1 X24.7500 Y24.5000 
G1 Z0.2500 
G0 X24.0500 Y24.4000 
G1 Z-0.2500 
G1 X24.7500 Y24.4000 
G1 Z0.2500 
G0 X24.0500 Y24.3000 
G1 Z-0.2500 
G1 X24.7500 Y24.3000 
G1 Z0.2500 
G0 X24.0500 Y24.2000 
G1 Z-0.2500 
G1 X24.7500 Y24.2000 
G1 Z0.2500 
G0 X24.0500 Y24.1000 
G1 Z-0.2500 
G1 X24.7500 Y24.1000 
G1 Z0.0000 
G0 X24.0500 Y24.7000 
G1 Z-0.5000 
G1 X24.7500 Y24.7000 
G1 Z0.0000 
G0 X24.0500 Y24.6000 
G1 Z-0.5000 
G1 X24.7500 Y24.6000 
G1 Z0.0000 
G0 X24.0500 Y24.5000 
G1 Z-0.5000 
G1 X24.7500 Y24.5000 
G1 Z0.0000 
G0 X24.0500 Y24.4000 
G1 Z-0.5000 
G1 X24.7500 Y24.4000 
G1 Z0.0000 
G0 X24.0500 Y24.3000 
G1 Z-0.5000 
G1 X24.7500 Y24.3000 
G1 Z0.0000 
G0 X24.0500 Y24.2000 
G1 Z-0.5000 
G1 X24.7500 Y24.2000 
G1 Z0.0000 
G0 X24.0500 Y24.1000 
G1 Z-0.5000 
G1 X24.7500 Y24.1000 
G1 Z3.0000 
G0 X25.6500 Y24.7500 
G1 Z-0.2500 
G1 X26.3500 Y24.7500 
G1 X26.3500 Y24.0500 
G1 X25.6500 Y24.0500 
G1 X25.6500 Y24.7500 
G1 Z-0.5000 
G1 X26.3500 Y24.7500 
G1 X26.3500 Y24.0500 
G1 X25.6500 Y24.0500 
G1 X25.6500 Y24.7500 
G1 Z3.0000 
G0 X25.6500 Y24.7500 
G1 Z0.2500 
G0 X25.6500 Y24.7000 
G1 Z-0.2500 
G1 X26.3500 Y24.7000 
G1 Z0.2500 
G0 X25.6500 Y24.6000 
G1 Z-0.2500 
G1 X26.3500 Y24.6000 
G1 Z0.2500 
G0 X25.6500 Y24.5000 
G1 Z-0.2500 
G1 X26.3500 Y24.5000 
G1 Z0.2500 
G0 X25.6500 Y24.4000 
G1 Z-0.2500 
G1 X26.3500 Y24.4000 
G1 Z0.2500 
G0 X25.6500 Y24.3000 
G1 Z-0.2500 
G1 X26.3500 Y24.3000 
G1 Z0.2500 
G0 X25.6500 Y24.2000 
G1 Z-0.2500 
G1 X26.3500 Y24.2000 
G1 Z0.2500 
G0 X25.6500 Y24.1000 
G1 Z-0.2500 
G1 X26.3500 Y24.1000 
G1 Z0.0000 
G0 X25.6500 Y24.7000 
G1 Z-0.5000 
G1 X26.3500 Y24.7000 
G1 Z0.0000 
G0 X25.6500 Y24.6000 
G1 Z-0.5000 
G1 X26.3500 Y24.6000 
G1 Z0.0000 
G0 X25.6500 Y24.5000 
G1 Z-0.5000 
G1 X26.3500 Y24.5000 
G1 Z0.0000 
G0 X25.6500 Y24.4000 
G1 Z-0.5000 
G1 X26.3500 Y24.4000 
G1 Z0.0000 
G0 X25.6500 Y24.3000 
G1 Z-0.5000 
G1 X26.3500 Y24.3000 
G1 Z0.0000 
G0 X25.6500 Y24.2000 
G1 Z-0.5000 
G1 X26.3500 Y24.2000 
G1 Z0.0000 
G0 X25.6500 Y24.1000 
G1 Z-0.5000 
G1 X26.3500 Y24.1000 
G1 Z3.0000 
G0 X3.2500 Y23.9500 
G1 Z-0.2500 
G1 X3.9500 Y23.9500 
G1 X3.9500 Y23.2500 
G1 X3.2500 Y23.2500 
G1 X3.2500 Y23.9500 
G1 Z-0.5000 
G1 X3.9500 Y23.9500 
G1 X3.9500 Y23.2500 
G1 X3.2500 Y23.2500 
G1 X3.2500 Y23.9500 
G1 Z3.0000 
G0 X3.2500 Y23.9500 
G1 Z0.2500 
G0 X3.3000 Y23.9500 
G1 Z-0.2500 
G1 X3.3000 Y23.2500 
G1 Z0.2500 
G0 X3.3000 Y23.9500 
G1 Z-0.2500 
G1 X3.3000 Y23.2500 
G1 Z0.2500 
G0 X3.3000 Y23.9500 
G1 Z-0.2500 
G1 X3.3000 Y23.2500 
G1 Z0.2500 
G0 X3.3000 Y23.9500 
G1 Z-0.2500 
G1 X3.3000 Y23.2500 
G1 Z0.2500 
G0 X3.3000 Y23.9500 
G1 Z-0.2500 
G1 X3.3000 Y23.2500 
G1 Z0.2500 
G0 X3.3000 Y23.9500 
G1 Z-0.2500 
G1 X3.3000 Y23.2500 
G1 Z0.2500 
G0 X3.3000 Y23.9500 
G1 Z-0.2500 
G1 X3.3000 Y23.2500 
G1 Z0.0000 
G0 X3.3000 Y23.9500 
G1 Z-0.5000 
G1 X3.3000 Y23.2500 
G1 Z0.0000 
G0 X3.3000 Y23.9500 
G1 Z-0.5000 
G1 X3.3000 Y23.2500 
G1 Z0.0000 
G0 X3.3000 Y23.9500 
G1 Z-0.5000 
G1 X3.3000 Y23.2500 
G1 Z0.0000 
G0 X3.3000 Y23.9500 
G1 Z-0.5000 
G1 X3.3000 Y23.2500 
G1 Z0.0000 
G0 X3.3000 Y23.9500 
G1 Z-0.5000 
G1 X3.3000 Y23.2500 
G1 Z0.0000 
G0 X3.3000 Y23.9500 
G1 Z-0.5000 
G1 X3.3000 Y23.2500 
G1 Z0.0000 
G0 X3.3000 Y23.9500 
G1 Z-0.5000 
G1 X3.3000 Y23.2500 
G1 Z3.0000 
G0 X4.8500 Y23.9500 
G1 Z-0.2500 
G1 X5.5500 Y23.9500 
G1 X5.5500 Y23.2500 
G1 X4.8500 Y23.2500 
G1 X4.8500 Y23.9500 
G1 Z-0.5000 
G1 X5.5500 Y23.9500 
G1 X5.5500 Y23.2500 
G1 X4.8500 Y23.2500 
G1 X4.8500 Y23.9500 
G1 Z3.0000 
G0 X4.8500 Y23.9500 
G1 Z0.2500 
G0 X4.9000 Y23.9500 
G1 Z-0.2500 
G1 X4.9000 Y23.2500 
G1 Z0.2500 
G0 X4.9000 Y23.9500 
G1 Z-0.2500 
G1 X4.9000 Y23.2500 
G1 Z0.2500 
G0 X4.9000 Y23.9500 
G1 Z-0.2500 
G1 X4.9000 Y23.2500 
G1 Z0.2500 
G0 X4.9000 Y23.9500 
G1 Z-0.2500 
G1 X4.9000 Y23.2500 
G1 Z0.2500 
G0 X4.9000 Y23.9500 
G1 Z-0.2500 
G1 X4.9000 Y23.2500 
G1 Z0.2500 
G0 X4.9000 Y23.9500 
G1 Z-0.2500 
G1 X4.9000 Y23.2500 
G1 Z0.2500 
G0 X4.9000 Y23.9500 
G1 Z-0.2500 
G1 X4.9000 Y23.2500 
G1 Z0.0000 
G0 X4.9000 Y23.9500 
G1 Z-0.5000 
G1 X4.9000 Y23.2500 
G1 Z0.0000 
G0 X4.9000 Y23.9500 
G1 Z-0.5000 
G1 X4.9000 Y23.2500 
G1 Z0.0000 
G0 X4.9000 Y23.9500 
G1 Z-0.5000 
G1 X4.9000 Y23.2500 
G1 Z0.0000 
G0 X4.9000 Y23.9500 
G1 Z-0.5000 
G1 X4.9000 Y23.2500 
G1 Z0.0000 
G0 X4.9000 Y23.9500 
G1 Z-0.5000 
G1 X4.9000 Y23.2500 
G1 Z0.0000 
G0 X4.9000 Y23.9500 
G1 Z-0.5000 
G1 X4.9000 Y23.2500 
G1 Z0.0000 
G0 X4.9000 Y23.9500 
G1 Z-0.5000 
G1 X4.9000 Y23.2500 
G1 Z3.0000 
G0 X5.6500 Y23.9500 
G1 Z-0.2500 
G1 X6.3500 Y23.9500 
G1 X6.3500 Y23.2500 
G1 X5.6500 Y23.2500 
G1 X5.6500 Y23.9500 
G1 Z-0.5000 
G1 X6.3500 Y23.9500 
G1 X6.3500 Y23.2500 
G1 X5.6500 Y23.2500 
G1 X5.6500 Y23.9500 
G1 Z3.0000 
G0 X5.6500 Y23.9500 
G1 Z0.2500 
G0 X5.6500 Y23.9000 
G1 Z-0.2500 
G1 X6.3500 Y23.9000 
G1 Z0.2500 
G0 X5.6500 Y23.8000 
G1 Z-0.2500 
G1 X6.3500 Y23.8000 
G1 Z0.2500 
G0 X5.6500 Y23.7000 
G1 Z-0.2500 
G1 X6.3500 Y23.7000 
G1 Z0.2500 
G0 X5.6500 Y23.6000 
G1 Z-0.2500 
G1 X6.3500 Y23.6000 
G1 Z0.2500 
G0 X5.6500 Y23.5000 
G1 Z-0.2500 
G1 X6.3500 Y23.5000 
G1 Z0.2500 
G0 X5.6500 Y23.4000 
G1 Z-0.2500 
G1 X6.3500 Y23.4000 
G1 Z0.2500 
G0 X5.6500 Y23.3000 
G1 Z-0.2500 
G1 X6.3500 Y23.3000 
G1 Z0.0000 
G0 X5.6500 Y23.9000 
G1 Z-0.5000 
G1 X6.3500 Y23.9000 
G1 Z0.0000 
G0 X5.6500 Y23.8000 
G1 Z-0.5000 
G1 X6.3500 Y23.8000 
G1 Z0.0000 
G0 X5.6500 Y23.7000 
G1 Z-0.5000 
G1 X6.3500 Y23.7000 
G1 Z0.0000 
G0 X5.6500 Y23.6000 
G1 Z-0.5000 
G1 X6.3500 Y23.6000 
G1 Z0.0000 
G0 X5.6500 Y23.5000 
G1 Z-0.5000 
G1 X6.3500 Y23.5000 
G1 Z0.0000 
G0 X5.6500 Y23.4000 
G1 Z-0.5000 
G1 X6.3500 Y23.4000 
G1 Z0.0000 
G0 X5.6500 Y23.3000 
G1 Z-0.5000 
G1 X6.3500 Y23.3000 
G1 Z3.0000 
G0 X6.4500 Y23.9500 
G1 Z-0.2500 
G1 X7.1500 Y23.9500 
G1 X7.1500 Y23.2500 
G1 X6.4500 Y23.2500 
G1 X6.4500 Y23.9500 
G1 Z-0.5000 
G1 X7.1500 Y23.9500 
G1 X7.1500 Y23.2500 
G1 X6.4500 Y23.2500 
G1 X6.4500 Y23.9500 
G1 Z3.0000 
G0 X6.4500 Y23.9500 
G1 Z0.2500 
G0 X6.5000 Y23.9500 
G1 Z-0.2500 
G1 X6.5000 Y23.2500 
G1 Z0.2500 
G0 X6.5000 Y23.9500 
G1 Z-0.2500 
G1 X6.5000 Y23.2500 
G1 Z0.2500 
G0 X6.5000 Y23.9500 
G1 Z-0.2500 
G1 X6.5000 Y23.2500 
G1 Z0.2500 
G0 X6.5000 Y23.9500 
G1 Z-0.2500 
G1 X6.5000 Y23.2500 
G1 Z0.2500 
G0 X6.5000 Y23.9500 
G1 Z-0.2500 
G1 X6.5000 Y23.2500 
G1 Z0.2500 
G0 X6.5000 Y23.9500 
G1 Z-0.2500 
G1 X6.5000 Y23.2500 
G1 Z0.2500 
G0 X6.5000 Y23.9500 
G1 Z-0.2500 
G1 X6.5000 Y23.2500 
G1 Z0.0000 
G0 X6.5000 Y23.9500 
G1 Z-0.5000 
G1 X6.5000 Y23.2500 
G1 Z0.0000 
G0 X6.5000 Y23.9500 
G1 Z-0.5000 
G1 X6.5000 Y23.2500 
G1 Z0.0000 
G0 X6.5000 Y23.9500 
G1 Z-0.5000 
G1 X6.5000 Y23.2500 
G1 Z0.0000 
G0 X6.5000 Y23.9500 
G1 Z-0.5000 
G1 X6.5000 Y23.2500 
G1 Z0.0000 
G0 X6.5000 Y23.9500 
G1 Z-0.5000 
G1 X6.5000 Y23.2500 
G1 Z0.0000 
G0 X6.5000 Y23.9500 
G1 Z-0.5000 
G1 X6.5000 Y23.2500 
G1 Z0.0000 
G0 X6.5000 Y23.9500 
G1 Z-0.5000 
G1 X6.5000 Y23.2500 
G1 Z3.0000 
G0 X8.0500 Y23.9500 
G1 Z-0.2500 
G1 X8.7500 Y23.9500 
G1 X8.7500 Y23.2500 
G1 X8.0500 Y23.2500 
G1 X8.0500 Y23.9500 
G1 Z-0.5000 
G1 X8.7500 Y23.9500 
G1 X8.7500 Y23.2500 
G1 X8.0500 Y23.2500 
G1 X8.0500 Y23.9500 
G1 Z3.0000 
G0 X8.0500 Y23.9500 
G1 Z0.2500 
G0 X8.1000 Y23.9500 
G1 Z-0.2500 
G1 X8.1000 Y23.2500 
G1 Z0.2500 
G0 X8.1000 Y23.9500 
G1 Z-0.2500 
G1 X8.1000 Y23.2500 
G1 Z0.2500 
G0 X8.1000 Y23.9500 
G1 Z-0.2500 
G1 X8.1000 Y23.2500 
G1 Z0.2500 
G0 X8.1000 Y23.9500 
G1 Z-0.2500 
G1 X8.1000 Y23.2500 
G1 Z0.2500 
G0 X8.1000 Y23.9500 
G1 Z-0.2500 
G1 X8.1000 Y23.2500 
G1 Z0.2500 
G0 X8.1000 Y23.9500 
G1 Z-0.2500 
G1 X8.1000 Y23.2500 
G1 Z0.2500 
G0 X8.1000 Y23.9500 
G1 Z-0.2500 
G1 X8.1000 Y23.2500 
G1 Z0.0000 
G0 X8.1000 Y23.9500 
G1 Z-0.5000 
G1 X8.1000 Y23.2500 
G1 Z0.0000 
G0 X8.1000 Y23.9500 
G1 Z-0.5000 
G1 X8.1000 Y23.2500 
G1 Z0.0000 
G0 X8.1000 Y23.9500 
G1 Z-0.5000 
G1 X8.1000 Y23.2500 
G1 Z0.0000 
G0 X8.1000 Y23.9500 
G1 Z-0.5000 
G1 X8.1000 Y23.2500 
G1 Z0.0000 
G0 X8.1000 Y23.9500 
G1 Z-0.5000 
G1 X8.1000 Y23.2500 
G1 Z0.0000 
G0 X8.1000 Y23.9500 
G1 Z-0.5000 
G1 X8.1000 Y23.2500 
G1 Z0.0000 
G0 X8.1000 Y23.9500 
G1 Z-0.5000 
G1 X8.1000 Y23.2500 
G1 Z3.0000 
G0 X9.6500 Y23.9500 
G1 Z-0.2500 
G1 X10.3500 Y23.9500 
G1 X10.3500 Y23.2500 
G1 X9.6500 Y23.2500 
G1 X9.6500 Y23.9500 
G1 Z-0.5000 
G1 X10.3500 Y23.9500 
G1 X10.3500 Y23.2500 
G1 X9.6500 Y23.2500 
G1 X9.6500 Y23.9500 
G1 Z3.0000 
G0 X9.6500 Y23.9500 
G1 Z0.2500 
G0 X9.7000 Y23.9500 
G1 Z-0.2500 
G1 X9.7000 Y23.2500 
G1 Z0.2500 
G0 X9.7000 Y23.9500 
G1 Z-0.2500 
G1 X9.7000 Y23.2500 
G1 Z0.2500 
G0 X9.7000 Y23.9500 
G1 Z-0.2500 
G1 X9.7000 Y23.2500 
G1 Z0.2500 
G0 X9.7000 Y23.9500 
G1 Z-0.2500 
G1 X9.7000 Y23.2500 
G1 Z0.2500 
G0 X9.7000 Y23.9500 
G1 Z-0.2500 
G1 X9.7000 Y23.2500 
G1 Z0.2500 
G0 X9.7000 Y23.9500 
G1 Z-0.2500 
G1 X9.7000 Y23.2500 
G1 Z0.2500 
G0 X9.7000 Y23.9500 
G1 Z-0.2500 
G1 X9.7000 Y23.2500 
G1 Z0.0000 
G0 X9.7000 Y23.9500 
G1 Z-0.5000 
G1 X9.7000 Y23.2500 
G1 Z0.0000 
G0 X9.7000 Y23.9500 
G1 Z-0.5000 
G1 X9.7000 Y23.2500 
G1 Z0.0000 
G0 X9.7000 Y23.9500 
G1 Z-0.5000 
G1 X9.7000 Y23.2500 
G1 Z0.0000 
G0 X9.7000 Y23.9500 
G1 Z-0.5000 
G1 X9.7000 Y23.2500 
G1 Z0.0000 
G0 X9.7000 Y23.9500 
G1 Z-0.5000 
G1 X9.7000 Y23.2500 
G1 Z0.0000 
G0 X9.7000 Y23.9500 
G1 Z-0.5000 
G1 X9.7000 Y23.2500 
G1 Z0.0000 
G0 X9.7000 Y23.9500 
G1 Z-0.5000 
G1 X9.7000 Y23.2500 
G1 Z3.0000 
G0 X10.4500 Y23.9500 
G1 Z-0.2500 
G1 X11.1500 Y23.9500 
G1 X11.1500 Y23.2500 
G1 X10.4500 Y23.2500 
G1 X10.4500 Y23.9500 
G1 Z-0.5000 
G1 X11.1500 Y23.9500 
G1 X11.1500 Y23.2500 
G1 X10.4500 Y23.2500 
G1 X10.4500 Y23.9500 
G1 Z3.0000 
G0 X10.4500 Y23.9500 
G1 Z0.2500 
G0 X10.4500 Y23.9000 
G1 Z-0.2500 
G1 X11.1500 Y23.9000 
G1 Z0.2500 
G0 X10.4500 Y23.8000 
G1 Z-0.2500 
G1 X11.1500 Y23.8000 
G1 Z0.2500 
G0 X10.4500 Y23.7000 
G1 Z-0.2500 
G1 X11.1500 Y23.7000 
G1 Z0.2500 
G0 X10.4500 Y23.6000 
G1 Z-0.2500 
G1 X11.1500 Y23.6000 
G1 Z0.2500 
G0 X10.4500 Y23.5000 
G1 Z-0.2500 
G1 X11.1500 Y23.5000 
G1 Z0.2500 
G0 X10.4500 Y23.4000 
G1 Z-0.2500 
G1 X11.1500 Y23.4000 
G1 Z0.2500 
G0 X10.4500 Y23.3000 
G1 Z-0.2500 
G1 X11.1500 Y23.3000 
G1 Z0.0000 
G0 X10.4500 Y23.9000 
G1 Z-0.5000 
G1 X11.1500 Y23.9000 
G1 Z0.0000 
G0 X10.4500 Y23.8000 
G1 Z-0.5000 
G1 X11.1500 Y23.8000 
G1 Z0.0000 
G0 X10.4500 Y23.7000 
G1 Z-0.5000 
G1 X11.1500 Y23.7000 
G1 Z0.0000 
G0 X10.4500 Y23.6000 
G1 Z-0.5000 
G1 X11.1500 Y23.6000 
G1 Z0.0000 
G0 X10.4500 Y23.5000 
G1 Z-0.5000 
G1 X11.1500 Y23.5000 
G1 Z0.0000 
G0 X10.4500 Y23.4000 
G1 Z-0.5000 
G1 X11.1500 Y23.4000 
G1 Z0.0000 
G0 X10.4500 Y23.3000 
G1 Z-0.5000 
G1 X11.1500 Y23.3000 
G1 Z3.0000 
G0 X13.6500 Y23.9500 
G1 Z-0.2500 
G1 X14.3500 Y23.9500 
G1 X14.3500 Y23.2500 
G1 X13.6500 Y23.2500 
G1 X13.6500 Y23.9500 
G1 Z-0.5000 
G1 X14.3500 Y23.9500 
G1 X14.3500 Y23.2500 
G1 X13.6500 Y23.2500 
G1 X13.6500 Y23.9500 
G1 Z3.0000 
G0 X13.6500 Y23.9500 
G1 Z0.2500 
G0 X13.6500 Y23.9000 
G1 Z-0.2500 
G1 X14.3500 Y23.9000 
G1 Z0.2500 
G0 X13.6500 Y23.8000 
G1 Z-0.2500 
G1 X14.3500 Y23.8000 
G1 Z0.2500 
G0 X13.6500 Y23.7000 
G1 Z-0.2500 
G1 X14.3500 Y23.7000 
G1 Z0.2500 
G0 X13.6500 Y23.6000 
G1 Z-0.2500 
G1 X14.3500 Y23.6000 
G1 Z0.2500 
G0 X13.6500 Y23.5000 
G1 Z-0.2500 
G1 X14.3500 Y23.5000 
G1 Z0.2500 
G0 X13.6500 Y23.4000 
G1 Z-0.2500 
G1 X14.3500 Y23.4000 
G1 Z0.2500 
G0 X13.6500 Y23.3000 
G1 Z-0.2500 
G1 X14.3500 Y23.3000 
G1 Z0.0000 
G0 X13.6500 Y23.9000 
G1 Z-0.5000 
G1 X14.3500 Y23.9000 
G1 Z0.0000 
G0 X13.6500 Y23.8000 
G1 Z-0.5000 
G1 X14.3500 Y23.8000 
G1 Z0.0000 
G0 X13.6500 Y23.7000 
G1 Z-0.5000 
G1 X14.3500 Y23.7000 
G1 Z0.0000 
G0 X13.6500 Y23.6000 
G1 Z-0.5000 
G1 X14.3500 Y23.6000 
G1 Z0.0000 
G0 X13.6500 Y23.5000 
G1 Z-0.5000 
G1 X14.3500 Y23.5000 
G1 Z0.0000 
G0 X13.6500 Y23.4000 
G1 Z-0.5000 
G1 X14.3500 Y23.4000 
G1 Z0.0000 
G0 X13.6500 Y23.3000 
G1 Z-0.5000 
G1 X14.3500 Y23.3000 
G1 Z3.0000 
G0 X14.4500 Y23.9500 
G1 Z-0.2500 
G1 X15.1500 Y23.9500 
G1 X15.1500 Y23.2500 
G1 X14.4500 Y23.2500 
G1 X14.4500 Y23.9500 
G1 Z-0.5000 
G1 X15.1500 Y23.9500 
G1 X15.1500 Y23.2500 
G1 X14.4500 Y23.2500 
G1 X14.4500 Y23.9500 
G1 Z3.0000 
G0 X14.4500 Y23.9500 
G1 Z0.2500 
G0 X14.5000 Y23.9500 
G1 Z-0.2500 
G1 X14.5000 Y23.2500 
G1 Z0.2500 
G0 X14.5000 Y23.9500 
G1 Z-0.2500 
G1 X14.5000 Y23.2500 
G1 Z0.2500 
G0 X14.5000 Y23.9500 
G1 Z-0.2500 
G1 X14.5000 Y23.2500 
G1 Z0.2500 
G0 X14.5000 Y23.9500 
G1 Z-0.2500 
G1 X14.5000 Y23.2500 
G1 Z0.2500 
G0 X14.5000 Y23.9500 
G1 Z-0.2500 
G1 X14.5000 Y23.2500 
G1 Z0.2500 
G0 X14.5000 Y23.9500 
G1 Z-0.2500 
G1 X14.5000 Y23.2500 
G1 Z0.2500 
G0 X14.5000 Y23.9500 
G1 Z-0.2500 
G1 X14.5000 Y23.2500 
G1 Z0.0000 
G0 X14.5000 Y23.9500 
G1 Z-0.5000 
G1 X14.5000 Y23.2500 
G1 Z0.0000 
G0 X14.5000 Y23.9500 
G1 Z-0.5000 
G1 X14.5000 Y23.2500 
G1 Z0.0000 
G0 X14.5000 Y23.9500 
G1 Z-0.5000 
G1 X14.5000 Y23.2500 
G1 Z0.0000 
G0 X14.5000 Y23.9500 
G1 Z-0.5000 
G1 X14.5000 Y23.2500 
G1 Z0.0000 
G0 X14.5000 Y23.9500 
G1 Z-0.5000 
G1 X14.5000 Y23.2500 
G1 Z0.0000 
G0 X14.5000 Y23.9500 
G1 Z-0.5000 
G1 X14.5000 Y23.2500 
G1 Z0.0000 
G0 X14.5000 Y23.9500 
G1 Z-0.5000 
G1 X14.5000 Y23.2500 
G1 Z3.0000 
G0 X19.2500 Y23.9500 
G1 Z-0.2500 
G1 X19.9500 Y23.9500 
G1 X19.9500 Y23.2500 
G1 X19.2500 Y23.2500 
G1 X19.2500 Y23.9500 
G1 Z-0.5000 
G1 X19.9500 Y23.9500 
G1 X19.9500 Y23.2500 
G1 X19.2500 Y23.2500 
G1 X19.2500 Y23.9500 
G1 Z3.0000 
G0 X19.2500 Y23.9500 
G1 Z0.2500 
G0 X19.3000 Y23.9500 
G1 Z-0.2500 
G1 X19.3000 Y23.2500 
G1 Z0.2500 
G0 X19.3000 Y23.9500 
G1 Z-0.2500 
G1 X19.3000 Y23.2500 
G1 Z0.2500 
G0 X19.3000 Y23.9500 
G1 Z-0.2500 
G1 X19.3000 Y23.2500 
G1 Z0.2500 
G0 X19.3000 Y23.9500 
G1 Z-0.2500 
G1 X19.3000 Y23.2500 
G1 Z0.2500 
G0 X19.3000 Y23.9500 
G1 Z-0.2500 
G1 X19.3000 Y23.2500 
G1 Z0.2500 
G0 X19.3000 Y23.9500 
G1 Z-0.2500 
G1 X19.3000 Y23.2500 
G1 Z0.2500 
G0 X19.3000 Y23.9500 
G1 Z-0.2500 
G1 X19.3000 Y23.2500 
G1 Z0.0000 
G0 X19.3000 Y23.9500 
G1 Z-0.5000 
G1 X19.3000 Y23.2500 
G1 Z0.0000 
G0 X19.3000 Y23.9500 
G1 Z-0.5000 
G1 X19.3000 Y23.2500 
G1 Z0.0000 
G0 X19.3000 Y23.9500 
G1 Z-0.5000 
G1 X19.3000 Y23.2500 
G1 Z0.0000 
G0 X19.3000 Y23.9500 
G1 Z-0.5000 
G1 X19.3000 Y23.2500 
G1 Z0.0000 
G0 X19.3000 Y23.9500 
G1 Z-0.5000 
G1 X19.3000 Y23.2500 
G1 Z0.0000 
G0 X19.3000 Y23.9500 
G1 Z-0.5000 
G1 X19.3000 Y23.2500 
G1 Z0.0000 
G0 X19.3000 Y23.9500 
G1 Z-0.5000 
G1 X19.3000 Y23.2500 
G1 Z3.0000 
G0 X20.8500 Y23.9500 
G1 Z-0.2500 
G1 X21.5500 Y23.9500 
G1 X21.5500 Y23.2500 
G1 X20.8500 Y23.2500 
G1 X20.8500 Y23.9500 
G1 Z-0.5000 
G1 X21.5500 Y23.9500 
G1 X21.5500 Y23.2500 
G1 X20.8500 Y23.2500 
G1 X20.8500 Y23.9500 
G1 Z3.0000 
G0 X20.8500 Y23.9500 
G1 Z0.2500 
G0 X20.9000 Y23.9500 
G1 Z-0.2500 
G1 X20.9000 Y23.2500 
G1 Z0.2500 
G0 X20.9000 Y23.9500 
G1 Z-0.2500 
G1 X20.9000 Y23.2500 
G1 Z0.2500 
G0 X20.9000 Y23.9500 
G1 Z-0.2500 
G1 X20.9000 Y23.2500 
G1 Z0.2500 
G0 X20.9000 Y23.9500 
G1 Z-0.2500 
G1 X20.9000 Y23.2500 
G1 Z0.2500 
G0 X20.9000 Y23.9500 
G1 Z-0.2500 
G1 X20.9000 Y23.2500 
G1 Z0.2500 
G0 X20.9000 Y23.9500 
G1 Z-0.2500 
G1 X20.9000 Y23.2500 
G1 Z0.2500 
G0 X20.9000 Y23.9500 
G1 Z-0.2500 
G1 X20.9000 Y23.2500 
G1 Z0.0000 
G0 X20.9000 Y23.9500 
G1 Z-0.5000 
G1 X20.9000 Y23.2500 
G1 Z0.0000 
G0 X20.9000 Y23.9500 
G1 Z-0.5000 
G1 X20.9000 Y23.2500 
G1 Z0.0000 
G0 X20.9000 Y23.9500 
G1 Z-0.5000 
G1 X20.9000 Y23.2500 
G1 Z0.0000 
G0 X20.9000 Y23.9500 
G1 Z-0.5000 
G1 X20.9000 Y23.2500 
G1 Z0.0000 
G0 X20.9000 Y23.9500 
G1 Z-0.5000 
G1 X20.9000 Y23.2500 
G1 Z0.0000 
G0 X20.9000 Y23.9500 
G1 Z-0.5000 
G1 X20.9000 Y23.2500 
G1 Z0.0000 
G0 X20.9000 Y23.9500 
G1 Z-0.5000 
G1 X20.9000 Y23.2500 
G1 Z3.0000 
G0 X22.4500 Y23.9500 
G1 Z-0.2500 
G1 X23.1500 Y23.9500 
G1 X23.1500 Y23.2500 
G1 X22.4500 Y23.2500 
G1 X22.4500 Y23.9500 
G1 Z-0.5000 
G1 X23.1500 Y23.9500 
G1 X23.1500 Y23.2500 
G1 X22.4500 Y23.2500 
G1 X22.4500 Y23.9500 
G1 Z3.0000 
G0 X22.4500 Y23.9500 
G1 Z0.2500 
G0 X22.5000 Y23.9500 
G1 Z-0.2500 
G1 X22.5000 Y23.2500 
G1 Z0.2500 
G0 X22.5000 Y23.9500 
G1 Z-0.2500 
G1 X22.5000 Y23.2500 
G1 Z0.2500 
G0 X22.5000 Y23.9500 
G1 Z-0.2500 
G1 X22.5000 Y23.2500 
G1 Z0.2500 
G0 X22.5000 Y23.9500 
G1 Z-0.2500 
G1 X22.5000 Y23.2500 
G1 Z0.2500 
G0 X22.5000 Y23.9500 
G1 Z-0.2500 
G1 X22.5000 Y23.2500 
G1 Z0.2500 
G0 X22.5000 Y23.9500 
G1 Z-0.2500 
G1 X22.5000 Y23.2500 
G1 Z0.2500 
G0 X22.5000 Y23.9500 
G1 Z-0.2500 
G1 X22.5000 Y23.2500 
G1 Z0.0000 
G0 X22.5000 Y23.9500 
G1 Z-0.5000 
G1 X22.5000 Y23.2500 
G1 Z0.0000 
G0 X22.5000 Y23.9500 
G1 Z-0.5000 
G1 X22.5000 Y23.2500 
G1 Z0.0000 
G0 X22.5000 Y23.9500 
G1 Z-0.5000 
G1 X22.5000 Y23.2500 
G1 Z0.0000 
G0 X22.5000 Y23.9500 
G1 Z-0.5000 
G1 X22.5000 Y23.2500 
G1 Z0.0000 
G0 X22.5000 Y23.9500 
G1 Z-0.5000 
G1 X22.5000 Y23.2500 
G1 Z0.0000 
G0 X22.5000 Y23.9500 
G1 Z-0.5000 
G1 X22.5000 Y23.2500 
G1 Z0.0000 
G0 X22.5000 Y23.9500 
G1 Z-0.5000 
G1 X22.5000 Y23.2500 
G1 Z3.0000 
G0 X23.2500 Y23.9500 
G1 Z-0.2500 
G1 X23.9500 Y23.9500 
G1 X23.9500 Y23.2500 
G1 X23.2500 Y23.2500 
G1 X23.2500 Y23.9500 
G1 Z-0.5000 
G1 X23.9500 Y23.9500 
G1 X23.9500 Y23.2500 
G1 X23.2500 Y23.2500 
G1 X23.2500 Y23.9500 
G1 Z3.0000 
G0 X23.2500 Y23.9500 
G1 Z0.2500 
G0 X23.2500 Y23.9000 
G1 Z-0.2500 
G1 X23.9500 Y23.9000 
G1 Z0.2500 
G0 X23.2500 Y23.8000 
G1 Z-0.2500 
G1 X23.9500 Y23.8000 
G1 Z0.2500 
G0 X23.2500 Y23.7000 
G1 Z-0.2500 
G1 X23.9500 Y23.7000 
G1 Z0.2500 
G0 X23.2500 Y23.6000 
G1 Z-0.2500 
G1 X23.9500 Y23.6000 
G1 Z0.2500 
G0 X23.2500 Y23.5000 
G1 Z-0.2500 
G1 X23.9500 Y23.5000 
G1 Z0.2500 
G0 X23.2500 Y23.4000 
G1 Z-0.2500 
G1 X23.9500 Y23.4000 
G1 Z0.2500 
G0 X23.2500 Y23.3000 
G1 Z-0.2500 
G1 X23.9500 Y23.3000 
G1 Z0.0000 
G0 X23.2500 Y23.9000 
G1 Z-0.5000 
G1 X23.9500 Y23.9000 
G1 Z0.0000 
G0 X23.2500 Y23.8000 
G1 Z-0.5000 
G1 X23.9500 Y23.8000 
G1 Z0.0000 
G0 X23.2500 Y23.7000 
G1 Z-0.5000 
G1 X23.9500 Y23.7000 
G1 Z0.0000 
G0 X23.2500 Y23.6000 
G1 Z-0.5000 
G1 X23.9500 Y23.6000 
G1 Z0.0000 
G0 X23.2500 Y23.5000 
G1 Z-0.5000 
G1 X23.9500 Y23.5000 
G1 Z0.0000 
G0 X23.2500 Y23.4000 
G1 Z-0.5000 
G1 X23.9500 Y23.4000 
G1 Z0.0000 
G0 X23.2500 Y23.3000 
G1 Z-0.5000 
G1 X23.9500 Y23.3000 
G1 Z3.0000 
G0 X24.0500 Y23.9500 
G1 Z-0.2500 
G1 X24.7500 Y23.9500 
G1 X24.7500 Y23.2500 
G1 X24.0500 Y23.2500 
G1 X24.0500 Y23.9500 
G1 Z-0.5000 
G1 X24.7500 Y23.9500 
G1 X24.7500 Y23.2500 
G1 X24.0500 Y23.2500 
G1 X24.0500 Y23.9500 
G1 Z3.0000 
G0 X24.0500 Y23.9500 
G1 Z0.2500 
G0 X24.1000 Y23.9500 
G1 Z-0.2500 
G1 X24.1000 Y23.2500 
G1 Z0.2500 
G0 X24.1000 Y23.9500 
G1 Z-0.2500 
G1 X24.1000 Y23.2500 
G1 Z0.2500 
G0 X24.1000 Y23.9500 
G1 Z-0.2500 
G1 X24.1000 Y23.2500 
G1 Z0.2500 
G0 X24.1000 Y23.9500 
G1 Z-0.2500 
G1 X24.1000 Y23.2500 
G1 Z0.2500 
G0 X24.1000 Y23.9500 
G1 Z-0.2500 
G1 X24.1000 Y23.2500 
G1 Z0.2500 
G0 X24.1000 Y23.9500 
G1 Z-0.2500 
G1 X24.1000 Y23.2500 
G1 Z0.2500 
G0 X24.1000 Y23.9500 
G1 Z-0.2500 
G1 X24.1000 Y23.2500 
G1 Z0.0000 
G0 X24.1000 Y23.9500 
G1 Z-0.5000 
G1 X24.1000 Y23.2500 
G1 Z0.0000 
G0 X24.1000 Y23.9500 
G1 Z-0.5000 
G1 X24.1000 Y23.2500 
G1 Z0.0000 
G0 X24.1000 Y23.9500 
G1 Z-0.5000 
G1 X24.1000 Y23.2500 
G1 Z0.0000 
G0 X24.1000 Y23.9500 
G1 Z-0.5000 
G1 X24.1000 Y23.2500 
G1 Z0.0000 
G0 X24.1000 Y23.9500 
G1 Z-0.5000 
G1 X24.1000 Y23.2500 
G1 Z0.0000 
G0 X24.1000 Y23.9500 
G1 Z-0.5000 
G1 X24.1000 Y23.2500 
G1 Z0.0000 
G0 X24.1000 Y23.9500 
G1 Z-0.5000 
G1 X24.1000 Y23.2500 
G1 Z3.0000 
G0 X25.6500 Y23.9500 
G1 Z-0.2500 
G1 X26.3500 Y23.9500 
G1 X26.3500 Y23.2500 
G1 X25.6500 Y23.2500 
G1 X25.6500 Y23.9500 
G1 Z-0.5000 
G1 X26.3500 Y23.9500 
G1 X26.3500 Y23.2500 
G1 X25.6500 Y23.2500 
G1 X25.6500 Y23.9500 
G1 Z3.0000 
G0 X25.6500 Y23.9500 
G1 Z0.2500 
G0 X25.7000 Y23.9500 
G1 Z-0.2500 
G1 X25.7000 Y23.2500 
G1 Z0.2500 
G0 X25.7000 Y23.9500 
G1 Z-0.2500 
G1 X25.7000 Y23.2500 
G1 Z0.2500 
G0 X25.7000 Y23.9500 
G1 Z-0.2500 
G1 X25.7000 Y23.2500 
G1 Z0.2500 
G0 X25.7000 Y23.9500 
G1 Z-0.2500 
G1 X25.7000 Y23.2500 
G1 Z0.2500 
G0 X25.7000 Y23.9500 
G1 Z-0.2500 
G1 X25.7000 Y23.2500 
G1 Z0.2500 
G0 X25.7000 Y23.9500 
G1 Z-0.2500 
G1 X25.7000 Y23.2500 
G1 Z0.2500 
G0 X25.7000 Y23.9500 
G1 Z-0.2500 
G1 X25.7000 Y23.2500 
G1 Z0.0000 
G0 X25.7000 Y23.9500 
G1 Z-0.5000 
G1 X25.7000 Y23.2500 
G1 Z0.0000 
G0 X25.7000 Y23.9500 
G1 Z-0.5000 
G1 X25.7000 Y23.2500 
G1 Z0.0000 
G0 X25.7000 Y23.9500 
G1 Z-0.5000 
G1 X25.7000 Y23.2500 
G1 Z0.0000 
G0 X25.7000 Y23.9500 
G1 Z-0.5000 
G1 X25.7000 Y23.2500 
G1 Z0.0000 
G0 X25.7000 Y23.9500 
G1 Z-0.5000 
G1 X25.7000 Y23.2500 
G1 Z0.0000 
G0 X25.7000 Y23.9500 
G1 Z-0.5000 
G1 X25.7000 Y23.2500 
G1 Z0.0000 
G0 X25.7000 Y23.9500 
G1 Z-0.5000 
G1 X25.7000 Y23.2500 
G1 Z3.0000 
G0 X3.2500 Y23.1500 
G1 Z-0.2500 
G1 X3.9500 Y23.1500 
G1 X3.9500 Y22.4500 
G1 X3.2500 Y22.4500 
G1 X3.2500 Y23.1500 
G1 Z-0.5000 
G1 X3.9500 Y23.1500 
G1 X3.9500 Y22.4500 
G1 X3.2500 Y22.4500 
G1 X3.2500 Y23.1500 
G1 Z3.0000 
G0 X3.2500 Y23.1500 
G1 Z0.2500 
G0 X3.2500 Y23.1000 
G1 Z-0.2500 
G1 X3.9500 Y23.1000 
G1 Z0.2500 
G0 X3.2500 Y23.0000 
G1 Z-0.2500 
G1 X3.9500 Y23.0000 
G1 Z0.2500 
G0 X3.2500 Y22.9000 
G1 Z-0.2500 
G1 X3.9500 Y22.9000 
G1 Z0.2500 
G0 X3.2500 Y22.8000 
G1 Z-0.2500 
G1 X3.9500 Y22.8000 
G1 Z0.2500 
G0 X3.2500 Y22.7000 
G1 Z-0.2500 
G1 X3.9500 Y22.7000 
G1 Z0.2500 
G0 X3.2500 Y22.6000 
G1 Z-0.2500 
G1 X3.9500 Y22.6000 
G1 Z0.2500 
G0 X3.2500 Y22.5000 
G1 Z-0.2500 
G1 X3.9500 Y22.5000 
G1 Z0.0000 
G0 X3.2500 Y23.1000 
G1 Z-0.5000 
G1 X3.9500 Y23.1000 
G1 Z0.0000 
G0 X3.2500 Y23.0000 
G1 Z-0.5000 
G1 X3.9500 Y23.0000 
G1 Z0.0000 
G0 X3.2500 Y22.9000 
G1 Z-0.5000 
G1 X3.9500 Y22.9000 
G1 Z0.0000 
G0 X3.2500 Y22.8000 
G1 Z-0.5000 
G1 X3.9500 Y22.8000 
G1 Z0.0000 
G0 X3.2500 Y22.7000 
G1 Z-0.5000 
G1 X3.9500 Y22.7000 
G1 Z0.0000 
G0 X3.2500 Y22.6000 
G1 Z-0.5000 
G1 X3.9500 Y22.6000 
G1 Z0.0000 
G0 X3.2500 Y22.5000 
G1 Z-0.5000 
G1 X3.9500 Y22.5000 
G1 Z3.0000 
G0 X4.8500 Y23.1500 
G1 Z-0.2500 
G1 X5.5500 Y23.1500 
G1 X5.5500 Y22.4500 
G1 X4.8500 Y22.4500 
G1 X4.8500 Y23.1500 
G1 Z-0.5000 
G1 X5.5500 Y23.1500 
G1 X5.5500 Y22.4500 
G1 X4.8500 Y22.4500 
G1 X4.8500 Y23.1500 
G1 Z3.0000 
G0 X4.8500 Y23.1500 
G1 Z0.2500 
G0 X4.8500 Y23.1000 
G1 Z-0.2500 
G1 X5.5500 Y23.1000 
G1 Z0.2500 
G0 X4.8500 Y23.0000 
G1 Z-0.2500 
G1 X5.5500 Y23.0000 
G1 Z0.2500 
G0 X4.8500 Y22.9000 
G1 Z-0.2500 
G1 X5.5500 Y22.9000 
G1 Z0.2500 
G0 X4.8500 Y22.8000 
G1 Z-0.2500 
G1 X5.5500 Y22.8000 
G1 Z0.2500 
G0 X4.8500 Y22.7000 
G1 Z-0.2500 
G1 X5.5500 Y22.7000 
G1 Z0.2500 
G0 X4.8500 Y22.6000 
G1 Z-0.2500 
G1 X5.5500 Y22.6000 
G1 Z0.2500 
G0 X4.8500 Y22.5000 
G1 Z-0.2500 
G1 X5.5500 Y22.5000 
G1 Z0.0000 
G0 X4.8500 Y23.1000 
G1 Z-0.5000 
G1 X5.5500 Y23.1000 
G1 Z0.0000 
G0 X4.8500 Y23.0000 
G1 Z-0.5000 
G1 X5.5500 Y23.0000 
G1 Z0.0000 
G0 X4.8500 Y22.9000 
G1 Z-0.5000 
G1 X5.5500 Y22.9000 
G1 Z0.0000 
G0 X4.8500 Y22.8000 
G1 Z-0.5000 
G1 X5.5500 Y22.8000 
G1 Z0.0000 
G0 X4.8500 Y22.7000 
G1 Z-0.5000 
G1 X5.5500 Y22.7000 
G1 Z0.0000 
G0 X4.8500 Y22.6000 
G1 Z-0.5000 
G1 X5.5500 Y22.6000 
G1 Z0.0000 
G0 X4.8500 Y22.5000 
G1 Z-0.5000 
G1 X5.5500 Y22.5000 
G1 Z3.0000 
G0 X5.6500 Y23.1500 
G1 Z-0.2500 
G1 X6.3500 Y23.1500 
G1 X6.3500 Y22.4500 
G1 X5.6500 Y22.4500 
G1 X5.6500 Y23.1500 
G1 Z-0.5000 
G1 X6.3500 Y23.1500 
G1 X6.3500 Y22.4500 
G1 X5.6500 Y22.4500 
G1 X5.6500 Y23.1500 
G1 Z3.0000 
G0 X5.6500 Y23.1500 
G1 Z0.2500 
G0 X5.7000 Y23.1500 
G1 Z-0.2500 
G1 X5.7000 Y22.4500 
G1 Z0.2500 
G0 X5.7000 Y23.1500 
G1 Z-0.2500 
G1 X5.7000 Y22.4500 
G1 Z0.2500 
G0 X5.7000 Y23.1500 
G1 Z-0.2500 
G1 X5.7000 Y22.4500 
G1 Z0.2500 
G0 X5.7000 Y23.1500 
G1 Z-0.2500 
G1 X5.7000 Y22.4500 
G1 Z0.2500 
G0 X5.7000 Y23.1500 
G1 Z-0.2500 
G1 X5.7000 Y22.4500 
G1 Z0.2500 
G0 X5.7000 Y23.1500 
G1 Z-0.2500 
G1 X5.7000 Y22.4500 
G1 Z0.2500 
G0 X5.7000 Y23.1500 
G1 Z-0.2500 
G1 X5.7000 Y22.4500 
G1 Z0.0000 
G0 X5.7000 Y23.1500 
G1 Z-0.5000 
G1 X5.7000 Y22.4500 
G1 Z0.0000 
G0 X5.7000 Y23.1500 
G1 Z-0.5000 
G1 X5.7000 Y22.4500 
G1 Z0.0000 
G0 X5.7000 Y23.1500 
G1 Z-0.5000 
G1 X5.7000 Y22.4500 
G1 Z0.0000 
G0 X5.7000 Y23.1500 
G1 Z-0.5000 
G1 X5.7000 Y22.4500 
G1 Z0.0000 
G0 X5.7000 Y23.1500 
G1 Z-0.5000 
G1 X5.7000 Y22.4500 
G1 Z0.0000 
G0 X5.7000 Y23.1500 
G1 Z-0.5000 
G1 X5.7000 Y22.4500 
G1 Z0.0000 
G0 X5.7000 Y23.1500 
G1 Z-0.5000 
G1 X5.7000 Y22.4500 
G1 Z3.0000 
G0 X6.4500 Y23.1500 
G1 Z-0.2500 
G1 X7.1500 Y23.1500 
G1 X7.1500 Y22.4500 
G1 X6.4500 Y22.4500 
G1 X6.4500 Y23.1500 
G1 Z-0.5000 
G1 X7.1500 Y23.1500 
G1 X7.1500 Y22.4500 
G1 X6.4500 Y22.4500 
G1 X6.4500 Y23.1500 
G1 Z3.0000 
G0 X6.4500 Y23.1500 
G1 Z0.2500 
G0 X6.4500 Y23.1000 
G1 Z-0.2500 
G1 X7.1500 Y23.1000 
G1 Z0.2500 
G0 X6.4500 Y23.0000 
G1 Z-0.2500 
G1 X7.1500 Y23.0000 
G1 Z0.2500 
G0 X6.4500 Y22.9000 
G1 Z-0.2500 
G1 X7.1500 Y22.9000 
G1 Z0.2500 
G0 X6.4500 Y22.8000 
G1 Z-0.2500 
G1 X7.1500 Y22.8000 
G1 Z0.2500 
G0 X6.4500 Y22.7000 
G1 Z-0.2500 
G1 X7.1500 Y22.7000 
G1 Z0.2500 
G0 X6.4500 Y22.6000 
G1 Z-0.2500 
G1 X7.1500 Y22.6000 
G1 Z0.2500 
G0 X6.4500 Y22.5000 
G1 Z-0.2500 
G1 X7.1500 Y22.5000 
G1 Z0.0000 
G0 X6.4500 Y23.1000 
G1 Z-0.5000 
G1 X7.1500 Y23.1000 
G1 Z0.0000 
G0 X6.4500 Y23.0000 
G1 Z-0.5000 
G1 X7.1500 Y23.0000 
G1 Z0.0000 
G0 X6.4500 Y22.9000 
G1 Z-0.5000 
G1 X7.1500 Y22.9000 
G1 Z0.0000 
G0 X6.4500 Y22.8000 
G1 Z-0.5000 
G1 X7.1500 Y22.8000 
G1 Z0.0000 
G0 X6.4500 Y22.7000 
G1 Z-0.5000 
G1 X7.1500 Y22.7000 
G1 Z0.0000 
G0 X6.4500 Y22.6000 
G1 Z-0.5000 
G1 X7.1500 Y22.6000 
G1 Z0.0000 
G0 X6.4500 Y22.5000 
G1 Z-0.5000 
G1 X7.1500 Y22.5000 
G1 Z3.0000 
G0 X8.0500 Y23.1500 
G1 Z-0.2500 
G1 X8.7500 Y23.1500 
G1 X8.7500 Y22.4500 
G1 X8.0500 Y22.4500 
G1 X8.0500 Y23.1500 
G1 Z-0.5000 
G1 X8.7500 Y23.1500 
G1 X8.7500 Y22.4500 
G1 X8.0500 Y22.4500 
G1 X8.0500 Y23.1500 
G1 Z3.0000 
G0 X8.0500 Y23.1500 
G1 Z0.2500 
G0 X8.0500 Y23.1000 
G1 Z-0.2500 
G1 X8.7500 Y23.1000 
G1 Z0.2500 
G0 X8.0500 Y23.0000 
G1 Z-0.2500 
G1 X8.7500 Y23.0000 
G1 Z0.2500 
G0 X8.0500 Y22.9000 
G1 Z-0.2500 
G1 X8.7500 Y22.9000 
G1 Z0.2500 
G0 X8.0500 Y22.8000 
G1 Z-0.2500 
G1 X8.7500 Y22.8000 
G1 Z0.2500 
G0 X8.0500 Y22.7000 
G1 Z-0.2500 
G1 X8.7500 Y22.7000 
G1 Z0.2500 
G0 X8.0500 Y22.6000 
G1 Z-0.2500 
G1 X8.7500 Y22.6000 
G1 Z0.2500 
G0 X8.0500 Y22.5000 
G1 Z-0.2500 
G1 X8.7500 Y22.5000 
G1 Z0.0000 
G0 X8.0500 Y23.1000 
G1 Z-0.5000 
G1 X8.7500 Y23.1000 
G1 Z0.0000 
G0 X8.0500 Y23.0000 
G1 Z-0.5000 
G1 X8.7500 Y23.0000 
G1 Z0.0000 
G0 X8.0500 Y22.9000 
G1 Z-0.5000 
G1 X8.7500 Y22.9000 
G1 Z0.0000 
G0 X8.0500 Y22.8000 
G1 Z-0.5000 
G1 X8.7500 Y22.8000 
G1 Z0.0000 
G0 X8.0500 Y22.7000 
G1 Z-0.5000 
G1 X8.7500 Y22.7000 
G1 Z0.0000 
G0 X8.0500 Y22.6000 
G1 Z-0.5000 
G1 X8.7500 Y22.6000 
G1 Z0.0000 
G0 X8.0500 Y22.5000 
G1 Z-0.5000 
G1 X8.7500 Y22.5000 
G1 Z3.0000 
G0 X11.2500 Y23.1500 
G1 Z-0.2500 
G1 X11.9500 Y23.1500 
G1 X11.9500 Y22.4500 
G1 X11.2500 Y22.4500 
G1 X11.2500 Y23.1500 
G1 Z-0.5000 
G1 X11.9500 Y23.1500 
G1 X11.9500 Y22.4500 
G1 X11.2500 Y22.4500 
G1 X11.2500 Y23.1500 
G1 Z3.0000 
G0 X11.2500 Y23.1500 
G1 Z0.2500 
G0 X11.2500 Y23.1000 
G1 Z-0.2500 
G1 X11.9500 Y23.1000 
G1 Z0.2500 
G0 X11.2500 Y23.0000 
G1 Z-0.2500 
G1 X11.9500 Y23.0000 
G1 Z0.2500 
G0 X11.2500 Y22.9000 
G1 Z-0.2500 
G1 X11.9500 Y22.9000 
G1 Z0.2500 
G0 X11.2500 Y22.8000 
G1 Z-0.2500 
G1 X11.9500 Y22.8000 
G1 Z0.2500 
G0 X11.2500 Y22.7000 
G1 Z-0.2500 
G1 X11.9500 Y22.7000 
G1 Z0.2500 
G0 X11.2500 Y22.6000 
G1 Z-0.2500 
G1 X11.9500 Y22.6000 
G1 Z0.2500 
G0 X11.2500 Y22.5000 
G1 Z-0.2500 
G1 X11.9500 Y22.5000 
G1 Z0.0000 
G0 X11.2500 Y23.1000 
G1 Z-0.5000 
G1 X11.9500 Y23.1000 
G1 Z0.0000 
G0 X11.2500 Y23.0000 
G1 Z-0.5000 
G1 X11.9500 Y23.0000 
G1 Z0.0000 
G0 X11.2500 Y22.9000 
G1 Z-0.5000 
G1 X11.9500 Y22.9000 
G1 Z0.0000 
G0 X11.2500 Y22.8000 
G1 Z-0.5000 
G1 X11.9500 Y22.8000 
G1 Z0.0000 
G0 X11.2500 Y22.7000 
G1 Z-0.5000 
G1 X11.9500 Y22.7000 
G1 Z0.0000 
G0 X11.2500 Y22.6000 
G1 Z-0.5000 
G1 X11.9500 Y22.6000 
G1 Z0.0000 
G0 X11.2500 Y22.5000 
G1 Z-0.5000 
G1 X11.9500 Y22.5000 
G1 Z3.0000 
G0 X12.8500 Y23.1500 
G1 Z-0.2500 
G1 X13.5500 Y23.1500 
G1 X13.5500 Y22.4500 
G1 X12.8500 Y22.4500 
G1 X12.8500 Y23.1500 
G1 Z-0.5000 
G1 X13.5500 Y23.1500 
G1 X13.5500 Y22.4500 
G1 X12.8500 Y22.4500 
G1 X12.8500 Y23.1500 
G1 Z3.0000 
G0 X12.8500 Y23.1500 
G1 Z0.2500 
G0 X12.8500 Y23.1000 
G1 Z-0.2500 
G1 X13.5500 Y23.1000 
G1 Z0.2500 
G0 X12.8500 Y23.0000 
G1 Z-0.2500 
G1 X13.5500 Y23.0000 
G1 Z0.2500 
G0 X12.8500 Y22.9000 
G1 Z-0.2500 
G1 X13.5500 Y22.9000 
G1 Z0.2500 
G0 X12.8500 Y22.8000 
G1 Z-0.2500 
G1 X13.5500 Y22.8000 
G1 Z0.2500 
G0 X12.8500 Y22.7000 
G1 Z-0.2500 
G1 X13.5500 Y22.7000 
G1 Z0.2500 
G0 X12.8500 Y22.6000 
G1 Z-0.2500 
G1 X13.5500 Y22.6000 
G1 Z0.2500 
G0 X12.8500 Y22.5000 
G1 Z-0.2500 
G1 X13.5500 Y22.5000 
G1 Z0.0000 
G0 X12.8500 Y23.1000 
G1 Z-0.5000 
G1 X13.5500 Y23.1000 
G1 Z0.0000 
G0 X12.8500 Y23.0000 
G1 Z-0.5000 
G1 X13.5500 Y23.0000 
G1 Z0.0000 
G0 X12.8500 Y22.9000 
G1 Z-0.5000 
G1 X13.5500 Y22.9000 
G1 Z0.0000 
G0 X12.8500 Y22.8000 
G1 Z-0.5000 
G1 X13.5500 Y22.8000 
G1 Z0.0000 
G0 X12.8500 Y22.7000 
G1 Z-0.5000 
G1 X13.5500 Y22.7000 
G1 Z0.0000 
G0 X12.8500 Y22.6000 
G1 Z-0.5000 
G1 X13.5500 Y22.6000 
G1 Z0.0000 
G0 X12.8500 Y22.5000 
G1 Z-0.5000 
G1 X13.5500 Y22.5000 
G1 Z3.0000 
G0 X14.4500 Y23.1500 
G1 Z-0.2500 
G1 X15.1500 Y23.1500 
G1 X15.1500 Y22.4500 
G1 X14.4500 Y22.4500 
G1 X14.4500 Y23.1500 
G1 Z-0.5000 
G1 X15.1500 Y23.1500 
G1 X15.1500 Y22.4500 
G1 X14.4500 Y22.4500 
G1 X14.4500 Y23.1500 
G1 Z3.0000 
G0 X14.4500 Y23.1500 
G1 Z0.2500 
G0 X14.4500 Y23.1000 
G1 Z-0.2500 
G1 X15.1500 Y23.1000 
G1 Z0.2500 
G0 X14.4500 Y23.0000 
G1 Z-0.2500 
G1 X15.1500 Y23.0000 
G1 Z0.2500 
G0 X14.4500 Y22.9000 
G1 Z-0.2500 
G1 X15.1500 Y22.9000 
G1 Z0.2500 
G0 X14.4500 Y22.8000 
G1 Z-0.2500 
G1 X15.1500 Y22.8000 
G1 Z0.2500 
G0 X14.4500 Y22.7000 
G1 Z-0.2500 
G1 X15.1500 Y22.7000 
G1 Z0.2500 
G0 X14.4500 Y22.6000 
G1 Z-0.2500 
G1 X15.1500 Y22.6000 
G1 Z0.2500 
G0 X14.4500 Y22.5000 
G1 Z-0.2500 
G1 X15.1500 Y22.5000 
G1 Z0.0000 
G0 X14.4500 Y23.1000 
G1 Z-0.5000 
G1 X15.1500 Y23.1000 
G1 Z0.0000 
G0 X14.4500 Y23.0000 
G1 Z-0.5000 
G1 X15.1500 Y23.0000 
G1 Z0.0000 
G0 X14.4500 Y22.9000 
G1 Z-0.5000 
G1 X15.1500 Y22.9000 
G1 Z0.0000 
G0 X14.4500 Y22.8000 
G1 Z-0.5000 
G1 X15.1500 Y22.8000 
G1 Z0.0000 
G0 X14.4500 Y22.7000 
G1 Z-0.5000 
G1 X15.1500 Y22.7000 
G1 Z0.0000 
G0 X14.4500 Y22.6000 
G1 Z-0.5000 
G1 X15.1500 Y22.6000 
G1 Z0.0000 
G0 X14.4500 Y22.5000 
G1 Z-0.5000 
G1 X15.1500 Y22.5000 
G1 Z3.0000 
G0 X15.2500 Y23.1500 
G1 Z-0.2500 
G1 X15.9500 Y23.1500 
G1 X15.9500 Y22.4500 
G1 X15.2500 Y22.4500 
G1 X15.2500 Y23.1500 
G1 Z-0.5000 
G1 X15.9500 Y23.1500 
G1 X15.9500 Y22.4500 
G1 X15.2500 Y22.4500 
G1 X15.2500 Y23.1500 
G1 Z3.0000 
G0 X15.2500 Y23.1500 
G1 Z0.2500 
G0 X15.3000 Y23.1500 
G1 Z-0.2500 
G1 X15.3000 Y22.4500 
G1 Z0.2500 
G0 X15.3000 Y23.1500 
G1 Z-0.2500 
G1 X15.3000 Y22.4500 
G1 Z0.2500 
G0 X15.3000 Y23.1500 
G1 Z-0.2500 
G1 X15.3000 Y22.4500 
G1 Z0.2500 
G0 X15.3000 Y23.1500 
G1 Z-0.2500 
G1 X15.3000 Y22.4500 
G1 Z0.2500 
G0 X15.3000 Y23.1500 
G1 Z-0.2500 
G1 X15.3000 Y22.4500 
G1 Z0.2500 
G0 X15.3000 Y23.1500 
G1 Z-0.2500 
G1 X15.3000 Y22.4500 
G1 Z0.2500 
G0 X15.3000 Y23.1500 
G1 Z-0.2500 
G1 X15.3000 Y22.4500 
G1 Z0.0000 
G0 X15.3000 Y23.1500 
G1 Z-0.5000 
G1 X15.3000 Y22.4500 
G1 Z0.0000 
G0 X15.3000 Y23.1500 
G1 Z-0.5000 
G1 X15.3000 Y22.4500 
G1 Z0.0000 
G0 X15.3000 Y23.1500 
G1 Z-0.5000 
G1 X15.3000 Y22.4500 
G1 Z0.0000 
G0 X15.3000 Y23.1500 
G1 Z-0.5000 
G1 X15.3000 Y22.4500 
G1 Z0.0000 
G0 X15.3000 Y23.1500 
G1 Z-0.5000 
G1 X15.3000 Y22.4500 
G1 Z0.0000 
G0 X15.3000 Y23.1500 
G1 Z-0.5000 
G1 X15.3000 Y22.4500 
G1 Z0.0000 
G0 X15.3000 Y23.1500 
G1 Z-0.5000 
G1 X15.3000 Y22.4500 
G1 Z3.0000 
G0 X16.0500 Y23.1500 
G1 Z-0.2500 
G1 X16.7500 Y23.1500 
G1 X16.7500 Y22.4500 
G1 X16.0500 Y22.4500 
G1 X16.0500 Y23.1500 
G1 Z-0.5000 
G1 X16.7500 Y23.1500 
G1 X16.7500 Y22.4500 
G1 X16.0500 Y22.4500 
G1 X16.0500 Y23.1500 
G1 Z3.0000 
G0 X16.0500 Y23.1500 
G1 Z0.2500 
G0 X16.0500 Y23.1000 
G1 Z-0.2500 
G1 X16.7500 Y23.1000 
G1 Z0.2500 
G0 X16.0500 Y23.0000 
G1 Z-0.2500 
G1 X16.7500 Y23.0000 
G1 Z0.2500 
G0 X16.0500 Y22.9000 
G1 Z-0.2500 
G1 X16.7500 Y22.9000 
G1 Z0.2500 
G0 X16.0500 Y22.8000 
G1 Z-0.2500 
G1 X16.7500 Y22.8000 
G1 Z0.2500 
G0 X16.0500 Y22.7000 
G1 Z-0.2500 
G1 X16.7500 Y22.7000 
G1 Z0.2500 
G0 X16.0500 Y22.6000 
G1 Z-0.2500 
G1 X16.7500 Y22.6000 
G1 Z0.2500 
G0 X16.0500 Y22.5000 
G1 Z-0.2500 
G1 X16.7500 Y22.5000 
G1 Z0.0000 
G0 X16.0500 Y23.1000 
G1 Z-0.5000 
G1 X16.7500 Y23.1000 
G1 Z0.0000 
G0 X16.0500 Y23.0000 
G1 Z-0.5000 
G1 X16.7500 Y23.0000 
G1 Z0.0000 
G0 X16.0500 Y22.9000 
G1 Z-0.5000 
G1 X16.7500 Y22.9000 
G1 Z0.0000 
G0 X16.0500 Y22.8000 
G1 Z-0.5000 
G1 X16.7500 Y22.8000 
G1 Z0.0000 
G0 X16.0500 Y22.7000 
G1 Z-0.5000 
G1 X16.7500 Y22.7000 
G1 Z0.0000 
G0 X16.0500 Y22.6000 
G1 Z-0.5000 
G1 X16.7500 Y22.6000 
G1 Z0.0000 
G0 X16.0500 Y22.5000 
G1 Z-0.5000 
G1 X16.7500 Y22.5000 
G1 Z3.0000 
G0 X16.8500 Y23.1500 
G1 Z-0.2500 
G1 X17.5500 Y23.1500 
G1 X17.5500 Y22.4500 
G1 X16.8500 Y22.4500 
G1 X16.8500 Y23.1500 
G1 Z-0.5000 
G1 X17.5500 Y23.1500 
G1 X17.5500 Y22.4500 
G1 X16.8500 Y22.4500 
G1 X16.8500 Y23.1500 
G1 Z3.0000 
G0 X16.8500 Y23.1500 
G1 Z0.2500 
G0 X16.9000 Y23.1500 
G1 Z-0.2500 
G1 X16.9000 Y22.4500 
G1 Z0.2500 
G0 X16.9000 Y23.1500 
G1 Z-0.2500 
G1 X16.9000 Y22.4500 
G1 Z0.2500 
G0 X16.9000 Y23.1500 
G1 Z-0.2500 
G1 X16.9000 Y22.4500 
G1 Z0.2500 
G0 X16.9000 Y23.1500 
G1 Z-0.2500 
G1 X16.9000 Y22.4500 
G1 Z0.2500 
G0 X16.9000 Y23.1500 
G1 Z-0.2500 
G1 X16.9000 Y22.4500 
G1 Z0.2500 
G0 X16.9000 Y23.1500 
G1 Z-0.2500 
G1 X16.9000 Y22.4500 
G1 Z0.2500 
G0 X16.9000 Y23.1500 
G1 Z-0.2500 
G1 X16.9000 Y22.4500 
G1 Z0.0000 
G0 X16.9000 Y23.1500 
G1 Z-0.5000 
G1 X16.9000 Y22.4500 
G1 Z0.0000 
G0 X16.9000 Y23.1500 
G1 Z-0.5000 
G1 X16.9000 Y22.4500 
G1 Z0.0000 
G0 X16.9000 Y23.1500 
G1 Z-0.5000 
G1 X16.9000 Y22.4500 
G1 Z0.0000 
G0 X16.9000 Y23.1500 
G1 Z-0.5000 
G1 X16.9000 Y22.4500 
G1 Z0.0000 
G0 X16.9000 Y23.1500 
G1 Z-0.5000 
G1 X16.9000 Y22.4500 
G1 Z0.0000 
G0 X16.9000 Y23.1500 
G1 Z-0.5000 
G1 X16.9000 Y22.4500 
G1 Z0.0000 
G0 X16.9000 Y23.1500 
G1 Z-0.5000 
G1 X16.9000 Y22.4500 
G1 Z3.0000 
G0 X18.4500 Y23.1500 
G1 Z-0.2500 
G1 X19.1500 Y23.1500 
G1 X19.1500 Y22.4500 
G1 X18.4500 Y22.4500 
G1 X18.4500 Y23.1500 
G1 Z-0.5000 
G1 X19.1500 Y23.1500 
G1 X19.1500 Y22.4500 
G1 X18.4500 Y22.4500 
G1 X18.4500 Y23.1500 
G1 Z3.0000 
G0 X18.4500 Y23.1500 
G1 Z0.2500 
G0 X18.5000 Y23.1500 
G1 Z-0.2500 
G1 X18.5000 Y22.4500 
G1 Z0.2500 
G0 X18.5000 Y23.1500 
G1 Z-0.2500 
G1 X18.5000 Y22.4500 
G1 Z0.2500 
G0 X18.5000 Y23.1500 
G1 Z-0.2500 
G1 X18.5000 Y22.4500 
G1 Z0.2500 
G0 X18.5000 Y23.1500 
G1 Z-0.2500 
G1 X18.5000 Y22.4500 
G1 Z0.2500 
G0 X18.5000 Y23.1500 
G1 Z-0.2500 
G1 X18.5000 Y22.4500 
G1 Z0.2500 
G0 X18.5000 Y23.1500 
G1 Z-0.2500 
G1 X18.5000 Y22.4500 
G1 Z0.2500 
G0 X18.5000 Y23.1500 
G1 Z-0.2500 
G1 X18.5000 Y22.4500 
G1 Z0.0000 
G0 X18.5000 Y23.1500 
G1 Z-0.5000 
G1 X18.5000 Y22.4500 
G1 Z0.0000 
G0 X18.5000 Y23.1500 
G1 Z-0.5000 
G1 X18.5000 Y22.4500 
G1 Z0.0000 
G0 X18.5000 Y23.1500 
G1 Z-0.5000 
G1 X18.5000 Y22.4500 
G1 Z0.0000 
G0 X18.5000 Y23.1500 
G1 Z-0.5000 
G1 X18.5000 Y22.4500 
G1 Z0.0000 
G0 X18.5000 Y23.1500 
G1 Z-0.5000 
G1 X18.5000 Y22.4500 
G1 Z0.0000 
G0 X18.5000 Y23.1500 
G1 Z-0.5000 
G1 X18.5000 Y22.4500 
G1 Z0.0000 
G0 X18.5000 Y23.1500 
G1 Z-0.5000 
G1 X18.5000 Y22.4500 
G1 Z3.0000 
G0 X20.8500 Y23.1500 
G1 Z-0.2500 
G1 X21.5500 Y23.1500 
G1 X21.5500 Y22.4500 
G1 X20.8500 Y22.4500 
G1 X20.8500 Y23.1500 
G1 Z-0.5000 
G1 X21.5500 Y23.1500 
G1 X21.5500 Y22.4500 
G1 X20.8500 Y22.4500 
G1 X20.8500 Y23.1500 
G1 Z3.0000 
G0 X20.8500 Y23.1500 
G1 Z0.2500 
G0 X20.8500 Y23.1000 
G1 Z-0.2500 
G1 X21.5500 Y23.1000 
G1 Z0.2500 
G0 X20.8500 Y23.0000 
G1 Z-0.2500 
G1 X21.5500 Y23.0000 
G1 Z0.2500 
G0 X20.8500 Y22.9000 
G1 Z-0.2500 
G1 X21.5500 Y22.9000 
G1 Z0.2500 
G0 X20.8500 Y22.8000 
G1 Z-0.2500 
G1 X21.5500 Y22.8000 
G1 Z0.2500 
G0 X20.8500 Y22.7000 
G1 Z-0.2500 
G1 X21.5500 Y22.7000 
G1 Z0.2500 
G0 X20.8500 Y22.6000 
G1 Z-0.2500 
G1 X21.5500 Y22.6000 
G1 Z0.2500 
G0 X20.8500 Y22.5000 
G1 Z-0.2500 
G1 X21.5500 Y22.5000 
G1 Z0.0000 
G0 X20.8500 Y23.1000 
G1 Z-0.5000 
G1 X21.5500 Y23.1000 
G1 Z0.0000 
G0 X20.8500 Y23.0000 
G1 Z-0.5000 
G1 X21.5500 Y23.0000 
G1 Z0.0000 
G0 X20.8500 Y22.9000 
G1 Z-0.5000 
G1 X21.5500 Y22.9000 
G1 Z0.0000 
G0 X20.8500 Y22.8000 
G1 Z-0.5000 
G1 X21.5500 Y22.8000 
G1 Z0.0000 
G0 X20.8500 Y22.7000 
G1 Z-0.5000 
G1 X21.5500 Y22.7000 
G1 Z0.0000 
G0 X20.8500 Y22.6000 
G1 Z-0.5000 
G1 X21.5500 Y22.6000 
G1 Z0.0000 
G0 X20.8500 Y22.5000 
G1 Z-0.5000 
G1 X21.5500 Y22.5000 
G1 Z3.0000 
G0 X22.4500 Y23.1500 
G1 Z-0.2500 
G1 X23.1500 Y23.1500 
G1 X23.1500 Y22.4500 
G1 X22.4500 Y22.4500 
G1 X22.4500 Y23.1500 
G1 Z-0.5000 
G1 X23.1500 Y23.1500 
G1 X23.1500 Y22.4500 
G1 X22.4500 Y22.4500 
G1 X22.4500 Y23.1500 
G1 Z3.0000 
G0 X22.4500 Y23.1500 
G1 Z0.2500 
G0 X22.4500 Y23.1000 
G1 Z-0.2500 
G1 X23.1500 Y23.1000 
G1 Z0.2500 
G0 X22.4500 Y23.0000 
G1 Z-0.2500 
G1 X23.1500 Y23.0000 
G1 Z0.2500 
G0 X22.4500 Y22.9000 
G1 Z-0.2500 
G1 X23.1500 Y22.9000 
G1 Z0.2500 
G0 X22.4500 Y22.8000 
G1 Z-0.2500 
G1 X23.1500 Y22.8000 
G1 Z0.2500 
G0 X22.4500 Y22.7000 
G1 Z-0.2500 
G1 X23.1500 Y22.7000 
G1 Z0.2500 
G0 X22.4500 Y22.6000 
G1 Z-0.2500 
G1 X23.1500 Y22.6000 
G1 Z0.2500 
G0 X22.4500 Y22.5000 
G1 Z-0.2500 
G1 X23.1500 Y22.5000 
G1 Z0.0000 
G0 X22.4500 Y23.1000 
G1 Z-0.5000 
G1 X23.1500 Y23.1000 
G1 Z0.0000 
G0 X22.4500 Y23.0000 
G1 Z-0.5000 
G1 X23.1500 Y23.0000 
G1 Z0.0000 
G0 X22.4500 Y22.9000 
G1 Z-0.5000 
G1 X23.1500 Y22.9000 
G1 Z0.0000 
G0 X22.4500 Y22.8000 
G1 Z-0.5000 
G1 X23.1500 Y22.8000 
G1 Z0.0000 
G0 X22.4500 Y22.7000 
G1 Z-0.5000 
G1 X23.1500 Y22.7000 
G1 Z0.0000 
G0 X22.4500 Y22.6000 
G1 Z-0.5000 
G1 X23.1500 Y22.6000 
G1 Z0.0000 
G0 X22.4500 Y22.5000 
G1 Z-0.5000 
G1 X23.1500 Y22.5000 
G1 Z3.0000 
G0 X23.2500 Y23.1500 
G1 Z-0.2500 
G1 X23.9500 Y23.1500 
G1 X23.9500 Y22.4500 
G1 X23.2500 Y22.4500 
G1 X23.2500 Y23.1500 
G1 Z-0.5000 
G1 X23.9500 Y23.1500 
G1 X23.9500 Y22.4500 
G1 X23.2500 Y22.4500 
G1 X23.2500 Y23.1500 
G1 Z3.0000 
G0 X23.2500 Y23.1500 
G1 Z0.2500 
G0 X23.3000 Y23.1500 
G1 Z-0.2500 
G1 X23.3000 Y22.4500 
G1 Z0.2500 
G0 X23.3000 Y23.1500 
G1 Z-0.2500 
G1 X23.3000 Y22.4500 
G1 Z0.2500 
G0 X23.3000 Y23.1500 
G1 Z-0.2500 
G1 X23.3000 Y22.4500 
G1 Z0.2500 
G0 X23.3000 Y23.1500 
G1 Z-0.2500 
G1 X23.3000 Y22.4500 
G1 Z0.2500 
G0 X23.3000 Y23.1500 
G1 Z-0.2500 
G1 X23.3000 Y22.4500 
G1 Z0.2500 
G0 X23.3000 Y23.1500 
G1 Z-0.2500 
G1 X23.3000 Y22.4500 
G1 Z0.2500 
G0 X23.3000 Y23.1500 
G1 Z-0.2500 
G1 X23.3000 Y22.4500 
G1 Z0.0000 
G0 X23.3000 Y23.1500 
G1 Z-0.5000 
G1 X23.3000 Y22.4500 
G1 Z0.0000 
G0 X23.3000 Y23.1500 
G1 Z-0.5000 
G1 X23.3000 Y22.4500 
G1 Z0.0000 
G0 X23.3000 Y23.1500 
G1 Z-0.5000 
G1 X23.3000 Y22.4500 
G1 Z0.0000 
G0 X23.3000 Y23.1500 
G1 Z-0.5000 
G1 X23.3000 Y22.4500 
G1 Z0.0000 
G0 X23.3000 Y23.1500 
G1 Z-0.5000 
G1 X23.3000 Y22.4500 
G1 Z0.0000 
G0 X23.3000 Y23.1500 
G1 Z-0.5000 
G1 X23.3000 Y22.4500 
G1 Z0.0000 
G0 X23.3000 Y23.1500 
G1 Z-0.5000 
G1 X23.3000 Y22.4500 
G1 Z3.0000 
G0 X24.0500 Y23.1500 
G1 Z-0.2500 
G1 X24.7500 Y23.1500 
G1 X24.7500 Y22.4500 
G1 X24.0500 Y22.4500 
G1 X24.0500 Y23.1500 
G1 Z-0.5000 
G1 X24.7500 Y23.1500 
G1 X24.7500 Y22.4500 
G1 X24.0500 Y22.4500 
G1 X24.0500 Y23.1500 
G1 Z3.0000 
G0 X24.0500 Y23.1500 
G1 Z0.2500 
G0 X24.0500 Y23.1000 
G1 Z-0.2500 
G1 X24.7500 Y23.1000 
G1 Z0.2500 
G0 X24.0500 Y23.0000 
G1 Z-0.2500 
G1 X24.7500 Y23.0000 
G1 Z0.2500 
G0 X24.0500 Y22.9000 
G1 Z-0.2500 
G1 X24.7500 Y22.9000 
G1 Z0.2500 
G0 X24.0500 Y22.8000 
G1 Z-0.2500 
G1 X24.7500 Y22.8000 
G1 Z0.2500 
G0 X24.0500 Y22.7000 
G1 Z-0.2500 
G1 X24.7500 Y22.7000 
G1 Z0.2500 
G0 X24.0500 Y22.6000 
G1 Z-0.2500 
G1 X24.7500 Y22.6000 
G1 Z0.2500 
G0 X24.0500 Y22.5000 
G1 Z-0.2500 
G1 X24.7500 Y22.5000 
G1 Z0.0000 
G0 X24.0500 Y23.1000 
G1 Z-0.5000 
G1 X24.7500 Y23.1000 
G1 Z0.0000 
G0 X24.0500 Y23.0000 
G1 Z-0.5000 
G1 X24.7500 Y23.0000 
G1 Z0.0000 
G0 X24.0500 Y22.9000 
G1 Z-0.5000 
G1 X24.7500 Y22.9000 
G1 Z0.0000 
G0 X24.0500 Y22.8000 
G1 Z-0.5000 
G1 X24.7500 Y22.8000 
G1 Z0.0000 
G0 X24.0500 Y22.7000 
G1 Z-0.5000 
G1 X24.7500 Y22.7000 
G1 Z0.0000 
G0 X24.0500 Y22.6000 
G1 Z-0.5000 
G1 X24.7500 Y22.6000 
G1 Z0.0000 
G0 X24.0500 Y22.5000 
G1 Z-0.5000 
G1 X24.7500 Y22.5000 
G1 Z3.0000 
G0 X25.6500 Y23.1500 
G1 Z-0.2500 
G1 X26.3500 Y23.1500 
G1 X26.3500 Y22.4500 
G1 X25.6500 Y22.4500 
G1 X25.6500 Y23.1500 
G1 Z-0.5000 
G1 X26.3500 Y23.1500 
G1 X26.3500 Y22.4500 
G1 X25.6500 Y22.4500 
G1 X25.6500 Y23.1500 
G1 Z3.0000 
G0 X25.6500 Y23.1500 
G1 Z0.2500 
G0 X25.6500 Y23.1000 
G1 Z-0.2500 
G1 X26.3500 Y23.1000 
G1 Z0.2500 
G0 X25.6500 Y23.0000 
G1 Z-0.2500 
G1 X26.3500 Y23.0000 
G1 Z0.2500 
G0 X25.6500 Y22.9000 
G1 Z-0.2500 
G1 X26.3500 Y22.9000 
G1 Z0.2500 
G0 X25.6500 Y22.8000 
G1 Z-0.2500 
G1 X26.3500 Y22.8000 
G1 Z0.2500 
G0 X25.6500 Y22.7000 
G1 Z-0.2500 
G1 X26.3500 Y22.7000 
G1 Z0.2500 
G0 X25.6500 Y22.6000 
G1 Z-0.2500 
G1 X26.3500 Y22.6000 
G1 Z0.2500 
G0 X25.6500 Y22.5000 
G1 Z-0.2500 
G1 X26.3500 Y22.5000 
G1 Z0.0000 
G0 X25.6500 Y23.1000 
G1 Z-0.5000 
G1 X26.3500 Y23.1000 
G1 Z0.0000 
G0 X25.6500 Y23.0000 
G1 Z-0.5000 
G1 X26.3500 Y23.0000 
G1 Z0.0000 
G0 X25.6500 Y22.9000 
G1 Z-0.5000 
G1 X26.3500 Y22.9000 
G1 Z0.0000 
G0 X25.6500 Y22.8000 
G1 Z-0.5000 
G1 X26.3500 Y22.8000 
G1 Z0.0000 
G0 X25.6500 Y22.7000 
G1 Z-0.5000 
G1 X26.3500 Y22.7000 
G1 Z0.0000 
G0 X25.6500 Y22.6000 
G1 Z-0.5000 
G1 X26.3500 Y22.6000 
G1 Z0.0000 
G0 X25.6500 Y22.5000 
G1 Z-0.5000 
G1 X26.3500 Y22.5000 
G1 Z3.0000 
G0 X3.2500 Y22.3500 
G1 Z-0.2500 
G1 X3.9500 Y22.3500 
G1 X3.9500 Y21.6500 
G1 X3.2500 Y21.6500 
G1 X3.2500 Y22.3500 
G1 Z-0.5000 
G1 X3.9500 Y22.3500 
G1 X3.9500 Y21.6500 
G1 X3.2500 Y21.6500 
G1 X3.2500 Y22.3500 
G1 Z3.0000 
G0 X3.2500 Y22.3500 
G1 Z0.2500 
G0 X3.3000 Y22.3500 
G1 Z-0.2500 
G1 X3.3000 Y21.6500 
G1 Z0.2500 
G0 X3.3000 Y22.3500 
G1 Z-0.2500 
G1 X3.3000 Y21.6500 
G1 Z0.2500 
G0 X3.3000 Y22.3500 
G1 Z-0.2500 
G1 X3.3000 Y21.6500 
G1 Z0.2500 
G0 X3.3000 Y22.3500 
G1 Z-0.2500 
G1 X3.3000 Y21.6500 
G1 Z0.2500 
G0 X3.3000 Y22.3500 
G1 Z-0.2500 
